(.../EAGLE-7.5.0/ulp/pcb-gcode.ulp)
(Copyright 2005 - 2012 by John Johnson)
(See readme.txt for licensing terms.)
(This file generated from the board:)
(.../Documents/eagle/Declan/Declan.brd)
(Current profile is .../EAGLE-7.5.0/ulp/profiles/emc.pp  )
(This file generated 10/09/2020 1:22 PM)
(Settings from pcb-machine.h)
(  Tool Size)
(0.3000 )
(Z Axis Settings)
(  High     Up        Down     Drill)
(12.7000 	2.5400 	-0.1778 	-2.0000 )
(spindle on time = 3.0000)
(milling depth = -0.2540)
(text depth = -0.1270)
(tool change at 0.0000 0.0000 50.0000 )
(feed rate xy = F508.00 )
(feed rate z  = F254.00 )
(Settings from pcb-defaults.h)
(isolate min = 0.0254)
(isolate max = 0.5080)
(isolate step = 0.1270)
(Generated bottom outlines, bottom drill, )
(Unit of measure: mm)
( Tool|       Size       |  Min Sub |  Max Sub |   Count )
( T01 | 0.800mm 0.0315in | 0.0000in | 0.0000in |       0 )
( T02 | 0.813mm 0.0320in | 0.0000in | 0.0000in |       0 )
( T03 | 0.900mm 0.0354in | 0.0000in | 0.0000in |       0 )
( T04 | 1.000mm 0.0394in | 0.0000in | 0.0000in |       0 )
( T05 | 1.016mm 0.0400in | 0.0000in | 0.0000in |       0 )
( T06 | 1.118mm 0.0440in | 0.0000in | 0.0000in |       0 )
( T07 | 1.651mm 0.0650in | 0.0000in | 0.0000in |       0 )
(Metric Mode)
G21
(Absolute Coordinates)
G90
G00 Z50.0000 
G00 X0.0000 Y0.0000 
G01 Z0.0000 F254.00 
G00 Z2.5400 
M03
G82 X-36.8300 Y31.7500 Z-2.0000 F254.00 R2.5400 
G82 X-36.8300 Y12.7000 Z-2.0000 F254.00 R2.5400
G82 X-39.3700 Y41.9100 Z-2.0000 F254.00 R2.5400
G82 X-39.3700 Y54.6100 Z-2.0000 F254.00 R2.5400
G82 X-44.4500 Y13.9700 Z-2.0000 F254.00 R2.5400
G82 X-44.4500 Y20.3200 Z-2.0000 F254.00 R2.5400
G82 X-45.0850 Y46.9900 Z-2.0000 F254.00 R2.5400
G82 X-45.0850 Y52.0700 Z-2.0000 F254.00 R2.5400
G82 X-46.3550 Y35.5600 Z-2.0000 F254.00 R2.5400
G82 X-46.9900 Y35.5600 Z-2.0000 F254.00 R2.5400
G82 X-49.5300 Y8.8900 Z-2.0000 F254.00 R2.5400
G82 X-49.5300 Y2.5400 Z-2.0000 F254.00 R2.5400
G82 X-50.8000 Y27.9400 Z-2.0000 F254.00 R2.5400
G82 X-52.0700 Y20.3200 Z-2.0000 F254.00 R2.5400
G82 X-55.8800 Y35.5600 Z-2.0000 F254.00 R2.5400
G82 X-59.6900 Y12.7000 Z-2.0000 F254.00 R2.5400
G82 X-59.6900 Y17.7800 Z-2.0000 F254.00 R2.5400
G82 X-16.5100 Y27.9400 Z-2.0000 F254.00 R2.5400
G82 X-19.0500 Y31.7500 Z-2.0000 F254.00 R2.5400
G82 X-26.6700 Y46.3550 Z-2.0000 F254.00 R2.5400
G82 X-26.6700 Y57.1500 Z-2.0000 F254.00 R2.5400
G82 X-34.2900 Y39.3700 Z-2.0000 F254.00 R2.5400 
G82 X-34.2900 Y39.3700 Z-2.0000 F254.00 R2.5400
G82 X-34.2900 Y49.5300 Z-2.0000 F254.00 R2.5400
G82 X-12.7000 Y39.3700 Z-2.0000 F254.00 R2.5400
G82 X-12.7000 Y39.3700 Z-2.0000 F254.00 R2.5400
G82 X-12.7000 Y49.5300 Z-2.0000 F254.00 R2.5400
G82 X-22.8600 Y39.3700 Z-2.0000 F254.00 R2.5400
G82 X-22.8600 Y39.3700 Z-2.0000 F254.00 R2.5400
G82 X-22.8600 Y49.5300 Z-2.0000 F254.00 R2.5400
G82 X-31.7500 Y8.8900 Z-2.0000 F254.00 R2.5400 
G82 X-31.7500 Y24.1300 Z-2.0000 F254.00 R2.5400
G82 X-34.2900 Y8.8900 Z-2.0000 F254.00 R2.5400
G82 X-34.2900 Y24.1300 Z-2.0000 F254.00 R2.5400
G82 X-36.8300 Y8.8900 Z-2.0000 F254.00 R2.5400
G82 X-36.8300 Y24.1300 Z-2.0000 F254.00 R2.5400
G82 X-39.3700 Y8.8900 Z-2.0000 F254.00 R2.5400
G82 X-39.3700 Y24.1300 Z-2.0000 F254.00 R2.5400
G82 X-41.9100 Y8.8900 Z-2.0000 F254.00 R2.5400
G82 X-41.9100 Y24.1300 Z-2.0000 F254.00 R2.5400
G82 X-44.4500 Y8.8900 Z-2.0000 F254.00 R2.5400
G82 X-44.4500 Y24.1300 Z-2.0000 F254.00 R2.5400
G82 X-8.8900 Y8.8900 Z-2.0000 F254.00 R2.5400
G82 X-8.8900 Y24.1300 Z-2.0000 F254.00 R2.5400
G82 X-11.4300 Y8.8900 Z-2.0000 F254.00 R2.5400
G82 X-11.4300 Y24.1300 Z-2.0000 F254.00 R2.5400
G82 X-13.9700 Y8.8900 Z-2.0000 F254.00 R2.5400
G82 X-13.9700 Y24.1300 Z-2.0000 F254.00 R2.5400
G82 X-16.5100 Y8.8900 Z-2.0000 F254.00 R2.5400
G82 X-16.5100 Y24.1300 Z-2.0000 F254.00 R2.5400
G82 X-19.0500 Y8.8900 Z-2.0000 F254.00 R2.5400
G82 X-19.0500 Y24.1300 Z-2.0000 F254.00 R2.5400
G82 X-21.5900 Y8.8900 Z-2.0000 F254.00 R2.5400
G82 X-21.5900 Y24.1300 Z-2.0000 F254.00 R2.5400
G82 X-24.1300 Y8.8900 Z-2.0000 F254.00 R2.5400
G82 X-24.1300 Y24.1300 Z-2.0000 F254.00 R2.5400
G82 X-26.6700 Y8.8900 Z-2.0000 F254.00 R2.5400
G82 X-26.6700 Y24.1300 Z-2.0000 F254.00 R2.5400
G82 X-29.2100 Y8.8900 Z-2.0000 F254.00 R2.5400
G82 X-29.2100 Y24.1300 Z-2.0000 F254.00 R2.5400
G82 X-31.7500 Y8.8900 Z-2.0000 F254.00 R2.5400 
G82 X-31.7500 Y24.1300 Z-2.0000 F254.00 R2.5400
G82 X-34.2900 Y8.8900 Z-2.0000 F254.00 R2.5400
G82 X-34.2900 Y24.1300 Z-2.0000 F254.00 R2.5400
G82 X-36.8300 Y8.8900 Z-2.0000 F254.00 R2.5400
G82 X-36.8300 Y24.1300 Z-2.0000 F254.00 R2.5400
G82 X-39.3700 Y8.8900 Z-2.0000 F254.00 R2.5400
G82 X-39.3700 Y24.1300 Z-2.0000 F254.00 R2.5400
G82 X-41.9100 Y8.8900 Z-2.0000 F254.00 R2.5400
G82 X-41.9100 Y24.1300 Z-2.0000 F254.00 R2.5400
G82 X-42.5450 Y36.8300 Z-2.0000 F254.00 R2.5400
G82 X-42.5450 Y39.3700 Z-2.0000 F254.00 R2.5400
G82 X-42.5450 Y41.9100 Z-2.0000 F254.00 R2.5400
G82 X-42.5450 Y44.4500 Z-2.0000 F254.00 R2.5400
G82 X-44.4500 Y8.8900 Z-2.0000 F254.00 R2.5400
G82 X-44.4500 Y24.1300 Z-2.0000 F254.00 R2.5400
G82 X-45.0850 Y36.8300 Z-2.0000 F254.00 R2.5400
G82 X-45.0850 Y39.3700 Z-2.0000 F254.00 R2.5400
G82 X-45.0850 Y41.9100 Z-2.0000 F254.00 R2.5400
G82 X-45.0850 Y44.4500 Z-2.0000 F254.00 R2.5400
G82 X-8.8900 Y8.8900 Z-2.0000 F254.00 R2.5400
G82 X-11.4300 Y8.8900 Z-2.0000 F254.00 R2.5400
G82 X-11.4300 Y24.1300 Z-2.0000 F254.00 R2.5400
G82 X-13.9700 Y8.8900 Z-2.0000 F254.00 R2.5400
G82 X-13.9700 Y24.1300 Z-2.0000 F254.00 R2.5400
G82 X-16.5100 Y8.8900 Z-2.0000 F254.00 R2.5400
G82 X-16.5100 Y24.1300 Z-2.0000 F254.00 R2.5400
G82 X-19.0500 Y8.8900 Z-2.0000 F254.00 R2.5400
G82 X-19.0500 Y24.1300 Z-2.0000 F254.00 R2.5400
G82 X-21.5900 Y8.8900 Z-2.0000 F254.00 R2.5400
G82 X-21.5900 Y24.1300 Z-2.0000 F254.00 R2.5400
G82 X-24.1300 Y8.8900 Z-2.0000 F254.00 R2.5400
G82 X-24.1300 Y24.1300 Z-2.0000 F254.00 R2.5400
G82 X-26.6700 Y8.8900 Z-2.0000 F254.00 R2.5400
G82 X-26.6700 Y24.1300 Z-2.0000 F254.00 R2.5400
G82 X-29.2100 Y8.8900 Z-2.0000 F254.00 R2.5400
G82 X-29.2100 Y24.1300 Z-2.0000 F254.00 R2.5400
G82 X-53.3400 Y8.8900 Z-2.0000 F254.00 R2.5400 
G82 X-55.8800 Y8.8900 Z-2.0000 F254.00 R2.5400
G82 X-55.8800 Y8.8900 Z-2.0000 F254.00 R2.5400
G82 X-58.4200 Y8.8900 Z-2.0000 F254.00 R2.5400
G82 X-58.4200 Y8.8900 Z-2.0000 F254.00 R2.5400
G82 X-60.9600 Y8.8900 Z-2.0000 F254.00 R2.5400
G82 X-60.9600 Y8.8900 Z-2.0000 F254.00 R2.5400
G82 X-54.6100 Y44.4500 Z-2.0000 F254.00 R2.5400 
G82 X-59.6900 Y44.4500 Z-2.0000 F254.00 R2.5400
G82 X-7.6200 Y38.1000 Z-2.0000 F254.00 R2.5400
G82 X-7.6200 Y38.1000 Z-2.0000 F254.00 R2.5400
G82 X-7.6200 Y41.9100 Z-2.0000 F254.00 R2.5400
G82 X-7.6200 Y41.9100 Z-2.0000 F254.00 R2.5400
G82 X-7.6200 Y45.7200 Z-2.0000 F254.00 R2.5400
G82 X-17.7800 Y38.1000 Z-2.0000 F254.00 R2.5400
G82 X-17.7800 Y38.1000 Z-2.0000 F254.00 R2.5400
G82 X-17.7800 Y41.9100 Z-2.0000 F254.00 R2.5400
G82 X-17.7800 Y41.9100 Z-2.0000 F254.00 R2.5400
G82 X-17.7800 Y45.7200 Z-2.0000 F254.00 R2.5400
G82 X-29.2100 Y38.1000 Z-2.0000 F254.00 R2.5400
G82 X-29.2100 Y38.1000 Z-2.0000 F254.00 R2.5400
G82 X-29.2100 Y41.9100 Z-2.0000 F254.00 R2.5400
G82 X-29.2100 Y41.9100 Z-2.0000 F254.00 R2.5400
G82 X-29.2100 Y45.7200 Z-2.0000 F254.00 R2.5400
G82 X-46.9900 Y8.8900 Z-2.0000 F254.00 R2.5400 
G82 X-46.9900 Y24.1300 
G82 X-6.3500 Y8.8900 
G82 X-6.3500 Y24.1300 
T01 
G00 Z12.7000 
M05
M02
