(.../EAGLE-7.5.0/ulp/pcb-gcode.ulp)
(Copyright 2005 - 2012 by John Johnson)
(See readme.txt for licensing terms.)
(This file generated from the board:)
(.../Documents/eagle/Declan/Declan.brd)
(Current profile is .../EAGLE-7.5.0/ulp/profiles/emc.pp  )
(This file generated 10/09/2020 1:22 PM)
(Settings from pcb-machine.h)
(  Tool Size)
(0.3000 )
(Z Axis Settings)
(  High     Up        Down     Drill)
(12.7000 	2.5400 	-0.1778 	-2.0000 )
(spindle on time = 3.0000)
(milling depth = -0.2540)
(text depth = -0.1270)
(tool change at 0.0000 0.0000 50.0000 )
(feed rate xy = F508.00 )
(feed rate z  = F254.00 )
(Settings from pcb-defaults.h)
(isolate min = 0.0254)
(isolate max = 0.5080)
(isolate step = 0.1270)
(Generated bottom outlines, bottom drill, )
(Unit of measure: mm)
(Metric Mode)
G21
(Absolute Coordinates)
G90
G00 X0.0000 Y0.0000 
M03
G00 Z2.5400 
G00 X-66.7282 Y59.1082 
G01 Z-0.1778 F254.00 
G01 X-66.7282 Y0.5818 F508.00 
G01 X-0.5818 Y0.5818 
G01 X-0.5818 Y59.1082 
G01 X-66.7282 Y59.1082 
G00 Z2.5400 
G00 X-51.3818 Y36.7727 
G01 Z-0.1778 F254.00 
G01 X-51.3818 Y36.8873 F508.00 
G01 X-51.3594 Y36.9997 
G01 X-51.3156 Y37.1056 
G01 X-51.2519 Y37.2009 
G01 X-48.6309 Y39.8219 
G01 X-48.5356 Y39.8856 
G01 X-48.4297 Y39.9294 
G01 X-48.3173 Y39.9518 
G01 X-46.3526 Y39.9518 
G01 X-46.3526 Y40.4971 
G01 X-46.3259 Y40.5616 
G01 X-46.2766 Y40.6109 
G01 X-46.2121 Y40.6376 
G01 X-43.9579 Y40.6376 
G01 X-43.8934 Y40.6109 
G01 X-43.8441 Y40.5616 
G01 X-43.8174 Y40.4971 
G01 X-43.8174 Y38.2429 
G01 X-43.8441 Y38.1784 
G01 X-43.8934 Y38.1291 
G01 X-43.9579 Y38.1024 
G01 X-46.2121 Y38.1024 
G01 X-46.2766 Y38.1291 
G01 X-46.3259 Y38.1784 
G01 X-46.3526 Y38.2429 
G01 X-46.3526 Y38.7882 
G01 X-48.0190 Y38.7882 
G01 X-50.2182 Y36.5890 
G01 X-50.2182 Y29.2658 
G01 X-50.0424 Y29.1762 
G01 X-49.8584 Y29.0425 
G01 X-49.6975 Y28.8816 
G01 X-49.5638 Y28.6976 
G01 X-49.4605 Y28.4948 
G01 X-49.3902 Y28.2785 
G01 X-49.3546 Y28.0538 
G01 X-49.3546 Y27.8262 
G01 X-49.3902 Y27.6015 
G01 X-49.4605 Y27.3852 
G01 X-49.5638 Y27.1824 
G01 X-49.6975 Y26.9984 
G01 X-49.8584 Y26.8375 
G01 X-50.0424 Y26.7038 
G01 X-50.2452 Y26.6005 
G01 X-50.4615 Y26.5302 
G01 X-50.6862 Y26.4946 
G01 X-50.9138 Y26.4946 
G01 X-51.1385 Y26.5302 
G01 X-51.3548 Y26.6005 
G01 X-51.5576 Y26.7038 
G01 X-51.7416 Y26.8375 
G01 X-51.9025 Y26.9984 
G01 X-52.0362 Y27.1824 
G01 X-52.1395 Y27.3852 
G01 X-52.2098 Y27.6015 
G01 X-52.2454 Y27.8262 
G01 X-52.2454 Y28.0538 
G01 X-52.2098 Y28.2785 
G01 X-52.1395 Y28.4948 
G01 X-52.0362 Y28.6976 
G01 X-51.9025 Y28.8816 
G01 X-51.7416 Y29.0425 
G01 X-51.5576 Y29.1762 
G01 X-51.3818 Y29.2658 
G01 X-51.3818 Y36.7727 
G00 Z2.5400 
G00 X-43.1824 Y10.0820 
G01 Z-0.1778 F254.00 
G01 X-43.1824 Y7.6980 F508.00 
G01 X-43.2136 Y7.5010 
G01 X-43.2753 Y7.3112 
G01 X-43.3659 Y7.1334 
G01 X-43.4831 Y6.9720 
G01 X-43.6242 Y6.8309 
G01 X-43.7856 Y6.7137 
G01 X-43.9634 Y6.6231 
G01 X-44.1532 Y6.5614 
G01 X-44.3502 Y6.5302 
G01 X-44.5498 Y6.5302 
G01 X-44.7468 Y6.5614 
G01 X-44.9366 Y6.6231 
G01 X-45.1144 Y6.7137 
G01 X-45.2758 Y6.8309 
G01 X-45.4169 Y6.9720 
G01 X-45.5341 Y7.1334 
G01 X-45.6247 Y7.3112 
G01 X-45.6864 Y7.5010 
G01 X-45.7176 Y7.6980 
G01 X-45.7176 Y10.0820 
G01 X-45.6864 Y10.2790 
G01 X-45.6247 Y10.4688 
G01 X-45.5341 Y10.6466 
G01 X-45.4169 Y10.8080 
G01 X-45.2758 Y10.9491 
G01 X-45.1144 Y11.0663 
G01 X-45.0318 Y11.1084 
G01 X-45.0318 Y12.6442 
G01 X-45.2076 Y12.7338 
G01 X-45.3916 Y12.8675 
G01 X-45.5525 Y13.0284 
G01 X-45.6862 Y13.2124 
G01 X-45.7895 Y13.4152 
G01 X-45.8598 Y13.6315 
G01 X-45.8954 Y13.8562 
G01 X-45.8954 Y14.0838 
G01 X-45.8598 Y14.3085 
G01 X-45.7895 Y14.5248 
G01 X-45.6862 Y14.7276 
G01 X-45.5525 Y14.9116 
G01 X-45.3916 Y15.0725 
G01 X-45.2076 Y15.2062 
G01 X-45.0048 Y15.3095 
G01 X-44.7885 Y15.3798 
G01 X-44.5638 Y15.4154 
G01 X-44.3362 Y15.4154 
G01 X-44.1115 Y15.3798 
G01 X-43.8952 Y15.3095 
G01 X-43.6924 Y15.2062 
G01 X-43.5084 Y15.0725 
G01 X-43.3475 Y14.9116 
G01 X-43.2138 Y14.7276 
G01 X-43.1105 Y14.5248 
G01 X-43.0402 Y14.3085 
G01 X-43.0046 Y14.0838 
G01 X-43.0046 Y13.8562 
G01 X-43.0402 Y13.6315 
G01 X-43.1105 Y13.4152 
G01 X-43.2138 Y13.2124 
G01 X-43.3475 Y13.0284 
G01 X-43.5084 Y12.8675 
G01 X-43.6924 Y12.7338 
G01 X-43.8682 Y12.6442 
G01 X-43.8682 Y11.1084 
G01 X-43.7856 Y11.0663 
G01 X-43.6242 Y10.9491 
G01 X-43.4831 Y10.8080 
G01 X-43.3659 Y10.6466 
G01 X-43.2753 Y10.4688 
G01 X-43.2136 Y10.2790 
G01 X-43.1824 Y10.0820 
G00 Z2.5400 
G00 X-38.1024 Y10.0820 
G01 Z-0.1778 F254.00 
G01 X-38.1024 Y7.6980 F508.00 
G01 X-38.1336 Y7.5010 
G01 X-38.1953 Y7.3112 
G01 X-38.2859 Y7.1334 
G01 X-38.4031 Y6.9720 
G01 X-38.5442 Y6.8309 
G01 X-38.7056 Y6.7137 
G01 X-38.8834 Y6.6231 
G01 X-39.0732 Y6.5614 
G01 X-39.2702 Y6.5302 
G01 X-39.4698 Y6.5302 
G01 X-39.6668 Y6.5614 
G01 X-39.8566 Y6.6231 
G01 X-40.0344 Y6.7137 
G01 X-40.1958 Y6.8309 
G01 X-40.3369 Y6.9720 
G01 X-40.4541 Y7.1334 
G01 X-40.5447 Y7.3112 
G01 X-40.6064 Y7.5010 
G01 X-40.6376 Y7.6980 
G01 X-40.6376 Y10.0820 
G01 X-40.6064 Y10.2790 
G01 X-40.5447 Y10.4688 
G01 X-40.4541 Y10.6466 
G01 X-40.3369 Y10.8080 
G01 X-40.1958 Y10.9491 
G01 X-40.0344 Y11.0663 
G01 X-39.8566 Y11.1569 
G01 X-39.6668 Y11.2186 
G01 X-39.4698 Y11.2498 
G01 X-39.2702 Y11.2498 
G01 X-39.0732 Y11.2186 
G01 X-38.8834 Y11.1569 
G01 X-38.7056 Y11.0663 
G01 X-38.5442 Y10.9491 
G01 X-38.4031 Y10.8080 
G01 X-38.2859 Y10.6466 
G01 X-38.1953 Y10.4688 
G01 X-38.1336 Y10.2790 
G01 X-38.1024 Y10.0820 
G00 Z2.5400 
G00 X-33.0224 Y10.0820 
G01 Z-0.1778 F254.00 
G01 X-33.0224 Y7.6980 F508.00 
G01 X-33.0536 Y7.5010 
G01 X-33.1153 Y7.3112 
G01 X-33.2058 Y7.1334 
G01 X-33.3231 Y6.9720 
G01 X-33.4642 Y6.8309 
G01 X-33.6256 Y6.7137 
G01 X-33.8034 Y6.6231 
G01 X-33.9932 Y6.5614 
G01 X-34.1902 Y6.5302 
G01 X-34.3898 Y6.5302 
G01 X-34.5868 Y6.5614 
G01 X-34.7766 Y6.6231 
G01 X-34.9544 Y6.7137 
G01 X-35.1158 Y6.8309 
G01 X-35.2569 Y6.9720 
G01 X-35.3741 Y7.1334 
G01 X-35.4647 Y7.3112 
G01 X-35.5264 Y7.5010 
G01 X-35.5576 Y7.6980 
G01 X-35.5576 Y10.0820 
G01 X-35.5264 Y10.2790 
G01 X-35.4647 Y10.4688 
G01 X-35.3741 Y10.6466 
G01 X-35.2569 Y10.8080 
G01 X-35.1158 Y10.9491 
G01 X-34.9544 Y11.0663 
G01 X-34.7766 Y11.1569 
G01 X-34.5868 Y11.2186 
G01 X-34.3898 Y11.2498 
G01 X-34.1902 Y11.2498 
G01 X-33.9932 Y11.2186 
G01 X-33.8034 Y11.1569 
G01 X-33.6256 Y11.0663 
G01 X-33.4642 Y10.9491 
G01 X-33.3231 Y10.8080 
G01 X-33.2058 Y10.6466 
G01 X-33.1153 Y10.4688 
G01 X-33.0536 Y10.2790 
G01 X-33.0224 Y10.0820 
G00 Z2.5400 
G00 X-27.9424 Y10.0820 
G01 Z-0.1778 F254.00 
G01 X-27.9424 Y7.6980 F508.00 
G01 X-27.9736 Y7.5010 
G01 X-28.0353 Y7.3112 
G01 X-28.1258 Y7.1334 
G01 X-28.2431 Y6.9720 
G01 X-28.3842 Y6.8309 
G01 X-28.5456 Y6.7137 
G01 X-28.6282 Y6.6716 
G01 X-28.6282 Y6.2927 
G01 X-28.6506 Y6.1803 
G01 X-28.6944 Y6.0744 
G01 X-28.7581 Y5.9791 
G01 X-28.8391 Y5.8981 
G01 X-30.1091 Y4.6281 
G01 X-30.2044 Y4.5644 
G01 X-30.3103 Y4.5206 
G01 X-30.4227 Y4.4982 
G01 X-54.6673 Y4.4982 
G01 X-54.7797 Y4.5206 
G01 X-54.8856 Y4.5644 
G01 X-54.9809 Y4.6281 
G01 X-55.0619 Y4.7091 
G01 X-56.3319 Y5.9791 
G01 X-56.3956 Y6.0744 
G01 X-56.4394 Y6.1803 
G01 X-56.4618 Y6.2927 
G01 X-56.4618 Y6.9411 
G01 X-56.4778 Y6.9493 
G01 X-56.6230 Y7.0548 
G01 X-56.7500 Y7.1817 
G01 X-56.8555 Y7.3270 
G01 X-56.9370 Y7.4870 
G01 X-56.9925 Y7.6577 
G01 X-57.0206 Y7.8350 
G01 X-57.0206 Y9.9450 
G01 X-56.9925 Y10.1223 
G01 X-56.9370 Y10.2930 
G01 X-56.8555 Y10.4530 
G01 X-56.7500 Y10.5983 
G01 X-56.6230 Y10.7252 
G01 X-56.4778 Y10.8307 
G01 X-56.3178 Y10.9122 
G01 X-56.1471 Y10.9677 
G01 X-55.9698 Y10.9958 
G01 X-55.7902 Y10.9958 
G01 X-55.6129 Y10.9677 
G01 X-55.4422 Y10.9122 
G01 X-55.2822 Y10.8307 
G01 X-55.1369 Y10.7252 
G01 X-55.0100 Y10.5983 
G01 X-54.9045 Y10.4530 
G01 X-54.8230 Y10.2930 
G01 X-54.7675 Y10.1223 
G01 X-54.7394 Y9.9450 
G01 X-54.7394 Y7.8350 
G01 X-54.7675 Y7.6577 
G01 X-54.8230 Y7.4870 
G01 X-54.9045 Y7.3270 
G01 X-55.0100 Y7.1817 
G01 X-55.1369 Y7.0548 
G01 X-55.2822 Y6.9493 
G01 X-55.2982 Y6.9411 
G01 X-55.2982 Y6.5910 
G01 X-54.3690 Y5.6618 
G01 X-30.7210 Y5.6618 
G01 X-29.7918 Y6.5910 
G01 X-29.7918 Y6.6716 
G01 X-29.8744 Y6.7137 
G01 X-30.0358 Y6.8309 
G01 X-30.1769 Y6.9720 
G01 X-30.2941 Y7.1334 
G01 X-30.3847 Y7.3112 
G01 X-30.4464 Y7.5010 
G01 X-30.4776 Y7.6980 
G01 X-30.4776 Y10.0820 
G01 X-30.4464 Y10.2790 
G01 X-30.3847 Y10.4688 
G01 X-30.2941 Y10.6466 
G01 X-30.1769 Y10.8080 
G01 X-30.0358 Y10.9491 
G01 X-29.8744 Y11.0663 
G01 X-29.6966 Y11.1569 
G01 X-29.5068 Y11.2186 
G01 X-29.3098 Y11.2498 
G01 X-29.1102 Y11.2498 
G01 X-28.9132 Y11.2186 
G01 X-28.7234 Y11.1569 
G01 X-28.5456 Y11.0663 
G01 X-28.3842 Y10.9491 
G01 X-28.2431 Y10.8080 
G01 X-28.1258 Y10.6466 
G01 X-28.0353 Y10.4688 
G01 X-27.9736 Y10.2790 
G01 X-27.9424 Y10.0820 
G00 Z2.5400 
G00 X-22.8624 Y10.0820 
G01 Z-0.1778 F254.00 
G01 X-22.8624 Y7.6980 F508.00 
G01 X-22.8936 Y7.5010 
G01 X-22.9553 Y7.3112 
G01 X-23.0459 Y7.1334 
G01 X-23.1631 Y6.9720 
G01 X-23.3042 Y6.8309 
G01 X-23.4656 Y6.7137 
G01 X-23.6434 Y6.6231 
G01 X-23.8332 Y6.5614 
G01 X-24.0302 Y6.5302 
G01 X-24.2298 Y6.5302 
G01 X-24.4268 Y6.5614 
G01 X-24.6166 Y6.6231 
G01 X-24.7944 Y6.7137 
G01 X-24.9558 Y6.8309 
G01 X-25.0969 Y6.9720 
G01 X-25.2141 Y7.1334 
G01 X-25.3047 Y7.3112 
G01 X-25.3664 Y7.5010 
G01 X-25.3976 Y7.6980 
G01 X-25.3976 Y10.0820 
G01 X-25.3664 Y10.2790 
G01 X-25.3047 Y10.4688 
G01 X-25.2141 Y10.6466 
G01 X-25.0969 Y10.8080 
G01 X-24.9558 Y10.9491 
G01 X-24.7944 Y11.0663 
G01 X-24.6166 Y11.1569 
G01 X-24.4268 Y11.2186 
G01 X-24.2298 Y11.2498 
G01 X-24.0302 Y11.2498 
G01 X-23.8332 Y11.2186 
G01 X-23.6434 Y11.1569 
G01 X-23.4656 Y11.0663 
G01 X-23.3042 Y10.9491 
G01 X-23.1631 Y10.8080 
G01 X-23.0459 Y10.6466 
G01 X-22.9553 Y10.4688 
G01 X-22.8936 Y10.2790 
G01 X-22.8624 Y10.0820 
G00 Z2.5400 
G00 X-17.7824 Y10.0820 
G01 Z-0.1778 F254.00 
G01 X-17.7824 Y7.6980 F508.00 
G01 X-17.8136 Y7.5010 
G01 X-17.8753 Y7.3112 
G01 X-17.9658 Y7.1334 
G01 X-18.0831 Y6.9720 
G01 X-18.2242 Y6.8309 
G01 X-18.3856 Y6.7137 
G01 X-18.5634 Y6.6231 
G01 X-18.7532 Y6.5614 
G01 X-18.9502 Y6.5302 
G01 X-19.1498 Y6.5302 
G01 X-19.3468 Y6.5614 
G01 X-19.5366 Y6.6231 
G01 X-19.7144 Y6.7137 
G01 X-19.8758 Y6.8309 
G01 X-20.0169 Y6.9720 
G01 X-20.1341 Y7.1334 
G01 X-20.2247 Y7.3112 
G01 X-20.2864 Y7.5010 
G01 X-20.3176 Y7.6980 
G01 X-20.3176 Y10.0820 
G01 X-20.2864 Y10.2790 
G01 X-20.2247 Y10.4688 
G01 X-20.1341 Y10.6466 
G01 X-20.0169 Y10.8080 
G01 X-19.8758 Y10.9491 
G01 X-19.7144 Y11.0663 
G01 X-19.5366 Y11.1569 
G01 X-19.3468 Y11.2186 
G01 X-19.1498 Y11.2498 
G01 X-18.9502 Y11.2498 
G01 X-18.7532 Y11.2186 
G01 X-18.5634 Y11.1569 
G01 X-18.3856 Y11.0663 
G01 X-18.2242 Y10.9491 
G01 X-18.0831 Y10.8080 
G01 X-17.9658 Y10.6466 
G01 X-17.8753 Y10.4688 
G01 X-17.8136 Y10.2790 
G01 X-17.7824 Y10.0820 
G00 Z2.5400 
G00 X-12.7024 Y10.0820 
G01 Z-0.1778 F254.00 
G01 X-12.7024 Y7.6980 F508.00 
G01 X-12.7336 Y7.5010 
G01 X-12.7953 Y7.3112 
G01 X-12.8859 Y7.1334 
G01 X-13.0031 Y6.9720 
G01 X-13.1442 Y6.8309 
G01 X-13.3056 Y6.7137 
G01 X-13.4834 Y6.6231 
G01 X-13.6732 Y6.5614 
G01 X-13.8702 Y6.5302 
G01 X-14.0698 Y6.5302 
G01 X-14.2668 Y6.5614 
G01 X-14.4566 Y6.6231 
G01 X-14.6344 Y6.7137 
G01 X-14.7958 Y6.8309 
G01 X-14.9369 Y6.9720 
G01 X-15.0541 Y7.1334 
G01 X-15.1447 Y7.3112 
G01 X-15.2064 Y7.5010 
G01 X-15.2376 Y7.6980 
G01 X-15.2376 Y10.0820 
G01 X-15.2064 Y10.2790 
G01 X-15.1447 Y10.4688 
G01 X-15.0541 Y10.6466 
G01 X-14.9369 Y10.8080 
G01 X-14.7958 Y10.9491 
G01 X-14.6344 Y11.0663 
G01 X-14.4566 Y11.1569 
G01 X-14.2668 Y11.2186 
G01 X-14.0698 Y11.2498 
G01 X-13.8702 Y11.2498 
G01 X-13.6732 Y11.2186 
G01 X-13.4834 Y11.1569 
G01 X-13.3056 Y11.0663 
G01 X-13.1442 Y10.9491 
G01 X-13.0031 Y10.8080 
G01 X-12.8859 Y10.6466 
G01 X-12.7953 Y10.4688 
G01 X-12.7336 Y10.2790 
G01 X-12.7024 Y10.0820 
G00 Z2.5400 
G00 X-7.6224 Y10.0820 
G01 Z-0.1778 F254.00 
G01 X-7.6224 Y7.6980 F508.00 
G01 X-7.6536 Y7.5010 
G01 X-7.7153 Y7.3112 
G01 X-7.8059 Y7.1334 
G01 X-7.9231 Y6.9720 
G01 X-8.0642 Y6.8309 
G01 X-8.2256 Y6.7137 
G01 X-8.4034 Y6.6231 
G01 X-8.5932 Y6.5614 
G01 X-8.7902 Y6.5302 
G01 X-8.9898 Y6.5302 
G01 X-9.1868 Y6.5614 
G01 X-9.3766 Y6.6231 
G01 X-9.5544 Y6.7137 
G01 X-9.7158 Y6.8309 
G01 X-9.8569 Y6.9720 
G01 X-9.9741 Y7.1334 
G01 X-10.0647 Y7.3112 
G01 X-10.1264 Y7.5010 
G01 X-10.1576 Y7.6980 
G01 X-10.1576 Y10.0820 
G01 X-10.1264 Y10.2790 
G01 X-10.0647 Y10.4688 
G01 X-9.9741 Y10.6466 
G01 X-9.8569 Y10.8080 
G01 X-9.7158 Y10.9491 
G01 X-9.5544 Y11.0663 
G01 X-9.4718 Y11.1084 
G01 X-9.4718 Y12.4590 
G01 X-16.7510 Y19.7382 
G01 X-43.1242 Y19.7382 
G01 X-43.2138 Y19.5624 
G01 X-43.3475 Y19.3784 
G01 X-43.5084 Y19.2175 
G01 X-43.6924 Y19.0838 
G01 X-43.8952 Y18.9805 
G01 X-44.1115 Y18.9102 
G01 X-44.3362 Y18.8746 
G01 X-44.5638 Y18.8746 
G01 X-44.7885 Y18.9102 
G01 X-45.0048 Y18.9805 
G01 X-45.2076 Y19.0838 
G01 X-45.3916 Y19.2175 
G01 X-45.5525 Y19.3784 
G01 X-45.6862 Y19.5624 
G01 X-45.7895 Y19.7652 
G01 X-45.8598 Y19.9815 
G01 X-45.8954 Y20.2062 
G01 X-45.8954 Y20.4338 
G01 X-45.8598 Y20.6585 
G01 X-45.7895 Y20.8748 
G01 X-45.6862 Y21.0776 
G01 X-45.5525 Y21.2616 
G01 X-45.3916 Y21.4225 
G01 X-45.2076 Y21.5562 
G01 X-45.0048 Y21.6595 
G01 X-44.7885 Y21.7298 
G01 X-44.5638 Y21.7654 
G01 X-44.3362 Y21.7654 
G01 X-44.1115 Y21.7298 
G01 X-43.8952 Y21.6595 
G01 X-43.6924 Y21.5562 
G01 X-43.5084 Y21.4225 
G01 X-43.3475 Y21.2616 
G01 X-43.2138 Y21.0776 
G01 X-43.1242 Y20.9018 
G01 X-16.4527 Y20.9018 
G01 X-16.3403 Y20.8794 
G01 X-16.2344 Y20.8356 
G01 X-16.1391 Y20.7719 
G01 X-16.0581 Y20.6909 
G01 X-8.4381 Y13.0709 
G01 X-8.3744 Y12.9756 
G01 X-8.3306 Y12.8697 
G01 X-8.3082 Y12.7573 
G01 X-8.3082 Y11.1084 
G01 X-8.2256 Y11.0663 
G01 X-8.0642 Y10.9491 
G01 X-7.9231 Y10.8080 
G01 X-7.8059 Y10.6466 
G01 X-7.7153 Y10.4688 
G01 X-7.6536 Y10.2790 
G01 X-7.6224 Y10.0820 
G00 Z2.5400 
G00 X-40.6424 Y25.3220 
G01 Z-0.1778 F254.00 
G01 X-40.6424 Y22.9380 F508.00 
G01 X-40.6736 Y22.7410 
G01 X-40.7353 Y22.5512 
G01 X-40.8259 Y22.3734 
G01 X-40.9431 Y22.2120 
G01 X-41.0842 Y22.0709 
G01 X-41.2456 Y21.9536 
G01 X-41.4234 Y21.8631 
G01 X-41.6132 Y21.8014 
G01 X-41.8102 Y21.7702 
G01 X-42.0098 Y21.7702 
G01 X-42.2068 Y21.8014 
G01 X-42.3966 Y21.8631 
G01 X-42.5744 Y21.9536 
G01 X-42.7358 Y22.0709 
G01 X-42.8769 Y22.2120 
G01 X-42.9941 Y22.3734 
G01 X-43.0847 Y22.5512 
G01 X-43.1464 Y22.7410 
G01 X-43.1776 Y22.9380 
G01 X-43.1776 Y25.3220 
G01 X-43.1464 Y25.5190 
G01 X-43.0847 Y25.7088 
G01 X-42.9941 Y25.8866 
G01 X-42.8769 Y26.0480 
G01 X-42.7358 Y26.1891 
G01 X-42.5744 Y26.3063 
G01 X-42.3966 Y26.3969 
G01 X-42.2068 Y26.4586 
G01 X-42.0098 Y26.4898 
G01 X-41.8102 Y26.4898 
G01 X-41.6132 Y26.4586 
G01 X-41.4234 Y26.3969 
G01 X-41.2456 Y26.3063 
G01 X-41.0842 Y26.1891 
G01 X-40.9431 Y26.0480 
G01 X-40.8259 Y25.8866 
G01 X-40.7353 Y25.7088 
G01 X-40.6736 Y25.5190 
G01 X-40.6424 Y25.3220 
G00 Z2.5400 
G00 X-35.5624 Y25.3220 
G01 Z-0.1778 F254.00 
G01 X-35.5624 Y22.9380 F508.00 
G01 X-35.5936 Y22.7410 
G01 X-35.6553 Y22.5512 
G01 X-35.7459 Y22.3734 
G01 X-35.8631 Y22.2120 
G01 X-36.0042 Y22.0709 
G01 X-36.1656 Y21.9536 
G01 X-36.3434 Y21.8631 
G01 X-36.5332 Y21.8014 
G01 X-36.7302 Y21.7702 
G01 X-36.9298 Y21.7702 
G01 X-37.1268 Y21.8014 
G01 X-37.3166 Y21.8631 
G01 X-37.4944 Y21.9536 
G01 X-37.6558 Y22.0709 
G01 X-37.7969 Y22.2120 
G01 X-37.9141 Y22.3734 
G01 X-38.0047 Y22.5512 
G01 X-38.0664 Y22.7410 
G01 X-38.0976 Y22.9380 
G01 X-38.0976 Y25.3220 
G01 X-38.0664 Y25.5190 
G01 X-38.0047 Y25.7088 
G01 X-37.9141 Y25.8866 
G01 X-37.7969 Y26.0480 
G01 X-37.6558 Y26.1891 
G01 X-37.4944 Y26.3063 
G01 X-37.3166 Y26.3969 
G01 X-37.1268 Y26.4586 
G01 X-36.9298 Y26.4898 
G01 X-36.7302 Y26.4898 
G01 X-36.5332 Y26.4586 
G01 X-36.3434 Y26.3969 
G01 X-36.1656 Y26.3063 
G01 X-36.0042 Y26.1891 
G01 X-35.8631 Y26.0480 
G01 X-35.7459 Y25.8866 
G01 X-35.6553 Y25.7088 
G01 X-35.5936 Y25.5190 
G01 X-35.5624 Y25.3220 
G00 Z2.5400 
G00 X-30.4824 Y25.3220 
G01 Z-0.1778 F254.00 
G01 X-30.4824 Y22.9380 F508.00 
G01 X-30.5136 Y22.7410 
G01 X-30.5753 Y22.5512 
G01 X-30.6659 Y22.3734 
G01 X-30.7831 Y22.2120 
G01 X-30.9242 Y22.0709 
G01 X-31.0856 Y21.9536 
G01 X-31.2634 Y21.8631 
G01 X-31.4532 Y21.8014 
G01 X-31.6502 Y21.7702 
G01 X-31.8498 Y21.7702 
G01 X-32.0468 Y21.8014 
G01 X-32.2366 Y21.8631 
G01 X-32.4144 Y21.9536 
G01 X-32.5758 Y22.0709 
G01 X-32.7169 Y22.2120 
G01 X-32.8341 Y22.3734 
G01 X-32.9247 Y22.5512 
G01 X-32.9864 Y22.7410 
G01 X-33.0176 Y22.9380 
G01 X-33.0176 Y25.3220 
G01 X-32.9864 Y25.5190 
G01 X-32.9247 Y25.7088 
G01 X-32.8341 Y25.8866 
G01 X-32.7169 Y26.0480 
G01 X-32.5758 Y26.1891 
G01 X-32.4144 Y26.3063 
G01 X-32.2366 Y26.3969 
G01 X-32.0468 Y26.4586 
G01 X-31.8498 Y26.4898 
G01 X-31.6502 Y26.4898 
G01 X-31.4532 Y26.4586 
G01 X-31.2634 Y26.3969 
G01 X-31.0856 Y26.3063 
G01 X-30.9242 Y26.1891 
G01 X-30.7831 Y26.0480 
G01 X-30.6659 Y25.8866 
G01 X-30.5753 Y25.7088 
G01 X-30.5136 Y25.5190 
G01 X-30.4824 Y25.3220 
G00 Z2.5400 
G00 X-25.4024 Y25.3220 
G01 Z-0.1778 F254.00 
G01 X-25.4024 Y22.9380 F508.00 
G01 X-25.4336 Y22.7410 
G01 X-25.4953 Y22.5512 
G01 X-25.5859 Y22.3734 
G01 X-25.7031 Y22.2120 
G01 X-25.8442 Y22.0709 
G01 X-26.0056 Y21.9536 
G01 X-26.1834 Y21.8631 
G01 X-26.3732 Y21.8014 
G01 X-26.5702 Y21.7702 
G01 X-26.7698 Y21.7702 
G01 X-26.9668 Y21.8014 
G01 X-27.1566 Y21.8631 
G01 X-27.3344 Y21.9536 
G01 X-27.4958 Y22.0709 
G01 X-27.6369 Y22.2120 
G01 X-27.7541 Y22.3734 
G01 X-27.8447 Y22.5512 
G01 X-27.9064 Y22.7410 
G01 X-27.9376 Y22.9380 
G01 X-27.9376 Y25.3220 
G01 X-27.9064 Y25.5190 
G01 X-27.8447 Y25.7088 
G01 X-27.7541 Y25.8866 
G01 X-27.6369 Y26.0480 
G01 X-27.4958 Y26.1891 
G01 X-27.3344 Y26.3063 
G01 X-27.2518 Y26.3484 
G01 X-27.2518 Y29.2673 
G01 X-27.2294 Y29.3797 
G01 X-27.1856 Y29.4856 
G01 X-27.1219 Y29.5809 
G01 X-27.0409 Y29.6619 
G01 X-21.9609 Y34.7419 
G01 X-21.8656 Y34.8056 
G01 X-21.7597 Y34.8494 
G01 X-21.6473 Y34.8718 
G01 X-14.2110 Y34.8718 
G01 X-13.2818 Y35.8010 
G01 X-13.2818 Y38.0442 
G01 X-13.4576 Y38.1338 
G01 X-13.6416 Y38.2675 
G01 X-13.8025 Y38.4284 
G01 X-13.9362 Y38.6124 
G01 X-14.0395 Y38.8152 
G01 X-14.1098 Y39.0315 
G01 X-14.1454 Y39.2562 
G01 X-14.1454 Y39.4838 
G01 X-14.1098 Y39.7085 
G01 X-14.0395 Y39.9248 
G01 X-13.9362 Y40.1276 
G01 X-13.8025 Y40.3116 
G01 X-13.6416 Y40.4725 
G01 X-13.4576 Y40.6062 
G01 X-13.2818 Y40.6958 
G01 X-13.2818 Y41.9673 
G01 X-13.2594 Y42.0797 
G01 X-13.2156 Y42.1856 
G01 X-13.1519 Y42.2809 
G01 X-13.0709 Y42.3619 
G01 X-12.9756 Y42.4256 
G01 X-12.8697 Y42.4694 
G01 X-12.7573 Y42.4918 
G01 X-10.2158 Y42.4918 
G01 X-10.1262 Y42.6676 
G01 X-9.9925 Y42.8516 
G01 X-9.8316 Y43.0125 
G01 X-9.6476 Y43.1462 
G01 X-9.4448 Y43.2495 
G01 X-9.2285 Y43.3198 
G01 X-9.0038 Y43.3554 
G01 X-6.2362 Y43.3554 
G01 X-6.0115 Y43.3198 
G01 X-5.7952 Y43.2495 
G01 X-5.5924 Y43.1462 
G01 X-5.4084 Y43.0125 
G01 X-5.2475 Y42.8516 
G01 X-5.1138 Y42.6676 
G01 X-5.0105 Y42.4648 
G01 X-4.9402 Y42.2485 
G01 X-4.9046 Y42.0238 
G01 X-4.9046 Y41.7962 
G01 X-4.9402 Y41.5715 
G01 X-5.0105 Y41.3552 
G01 X-5.1138 Y41.1524 
G01 X-5.2475 Y40.9684 
G01 X-5.4084 Y40.8075 
G01 X-5.5924 Y40.6738 
G01 X-5.7952 Y40.5705 
G01 X-6.0115 Y40.5002 
G01 X-6.2362 Y40.4646 
G01 X-9.0038 Y40.4646 
G01 X-9.2285 Y40.5002 
G01 X-9.4448 Y40.5705 
G01 X-9.6476 Y40.6738 
G01 X-9.8316 Y40.8075 
G01 X-9.9925 Y40.9684 
G01 X-10.1262 Y41.1524 
G01 X-10.2158 Y41.3282 
G01 X-12.1182 Y41.3282 
G01 X-12.1182 Y40.6958 
G01 X-11.9424 Y40.6062 
G01 X-11.7584 Y40.4725 
G01 X-11.5975 Y40.3116 
G01 X-11.4638 Y40.1276 
G01 X-11.3605 Y39.9248 
G01 X-11.2902 Y39.7085 
G01 X-11.2546 Y39.4838 
G01 X-11.2546 Y39.2562 
G01 X-11.2902 Y39.0315 
G01 X-11.3605 Y38.8152 
G01 X-11.4638 Y38.6124 
G01 X-11.5975 Y38.4284 
G01 X-11.7584 Y38.2675 
G01 X-11.9424 Y38.1338 
G01 X-12.1182 Y38.0442 
G01 X-12.1182 Y35.5027 
G01 X-12.1406 Y35.3903 
G01 X-12.1844 Y35.2844 
G01 X-12.2481 Y35.1891 
G01 X-13.5181 Y33.9191 
G01 X-13.5991 Y33.8381 
G01 X-13.6944 Y33.7744 
G01 X-13.8003 Y33.7306 
G01 X-13.9127 Y33.7082 
G01 X-21.3490 Y33.7082 
G01 X-26.0882 Y28.9690 
G01 X-26.0882 Y26.3484 
G01 X-26.0056 Y26.3063 
G01 X-25.8442 Y26.1891 
G01 X-25.7031 Y26.0480 
G01 X-25.5859 Y25.8866 
G01 X-25.4953 Y25.7088 
G01 X-25.4336 Y25.5190 
G01 X-25.4024 Y25.3220 
G00 Z2.5400 
G00 X-20.3224 Y25.3220 
G01 Z-0.1778 F254.00 
G01 X-20.3224 Y22.9380 F508.00 
G01 X-20.3536 Y22.7410 
G01 X-20.4153 Y22.5512 
G01 X-20.5059 Y22.3734 
G01 X-20.6231 Y22.2120 
G01 X-20.7642 Y22.0709 
G01 X-20.9256 Y21.9536 
G01 X-21.1034 Y21.8631 
G01 X-21.2932 Y21.8014 
G01 X-21.4902 Y21.7702 
G01 X-21.6898 Y21.7702 
G01 X-21.8868 Y21.8014 
G01 X-22.0766 Y21.8631 
G01 X-22.2544 Y21.9536 
G01 X-22.4158 Y22.0709 
G01 X-22.5569 Y22.2120 
G01 X-22.6741 Y22.3734 
G01 X-22.7647 Y22.5512 
G01 X-22.8264 Y22.7410 
G01 X-22.8576 Y22.9380 
G01 X-22.8576 Y25.3220 
G01 X-22.8264 Y25.5190 
G01 X-22.7647 Y25.7088 
G01 X-22.6741 Y25.8866 
G01 X-22.5569 Y26.0480 
G01 X-22.4158 Y26.1891 
G01 X-22.2544 Y26.3063 
G01 X-22.0766 Y26.3969 
G01 X-21.8868 Y26.4586 
G01 X-21.6898 Y26.4898 
G01 X-21.4902 Y26.4898 
G01 X-21.2932 Y26.4586 
G01 X-21.1034 Y26.3969 
G01 X-20.9256 Y26.3063 
G01 X-20.7642 Y26.1891 
G01 X-20.6231 Y26.0480 
G01 X-20.5059 Y25.8866 
G01 X-20.4153 Y25.7088 
G01 X-20.3536 Y25.5190 
G01 X-20.3224 Y25.3220 
G00 Z2.5400 
G00 X-15.2424 Y25.3220 
G01 Z-0.1778 F254.00 
G01 X-15.2424 Y22.9380 F508.00 
G01 X-15.2736 Y22.7410 
G01 X-15.3353 Y22.5512 
G01 X-15.4259 Y22.3734 
G01 X-15.5431 Y22.2120 
G01 X-15.6842 Y22.0709 
G01 X-15.8456 Y21.9536 
G01 X-16.0234 Y21.8631 
G01 X-16.2132 Y21.8014 
G01 X-16.4102 Y21.7702 
G01 X-16.6098 Y21.7702 
G01 X-16.8068 Y21.8014 
G01 X-16.9966 Y21.8631 
G01 X-17.1744 Y21.9536 
G01 X-17.3358 Y22.0709 
G01 X-17.4769 Y22.2120 
G01 X-17.5941 Y22.3734 
G01 X-17.6847 Y22.5512 
G01 X-17.7464 Y22.7410 
G01 X-17.7776 Y22.9380 
G01 X-17.7776 Y25.3220 
G01 X-17.7464 Y25.5190 
G01 X-17.6847 Y25.7088 
G01 X-17.5941 Y25.8866 
G01 X-17.4769 Y26.0480 
G01 X-17.3358 Y26.1891 
G01 X-17.1744 Y26.3063 
G01 X-17.0918 Y26.3484 
G01 X-17.0918 Y26.6142 
G01 X-17.2676 Y26.7038 
G01 X-17.4516 Y26.8375 
G01 X-17.6125 Y26.9984 
G01 X-17.7462 Y27.1824 
G01 X-17.8495 Y27.3852 
G01 X-17.9198 Y27.6015 
G01 X-17.9554 Y27.8262 
G01 X-17.9554 Y28.0538 
G01 X-17.9198 Y28.2785 
G01 X-17.8495 Y28.4948 
G01 X-17.7462 Y28.6976 
G01 X-17.6125 Y28.8816 
G01 X-17.4516 Y29.0425 
G01 X-17.2676 Y29.1762 
G01 X-17.0648 Y29.2795 
G01 X-16.8485 Y29.3498 
G01 X-16.6238 Y29.3854 
G01 X-16.3962 Y29.3854 
G01 X-16.1715 Y29.3498 
G01 X-15.9552 Y29.2795 
G01 X-15.7524 Y29.1762 
G01 X-15.5684 Y29.0425 
G01 X-15.4075 Y28.8816 
G01 X-15.2738 Y28.6976 
G01 X-15.1705 Y28.4948 
G01 X-15.1002 Y28.2785 
G01 X-15.0646 Y28.0538 
G01 X-15.0646 Y27.8262 
G01 X-15.1002 Y27.6015 
G01 X-15.1705 Y27.3852 
G01 X-15.2738 Y27.1824 
G01 X-15.4075 Y26.9984 
G01 X-15.5684 Y26.8375 
G01 X-15.7524 Y26.7038 
G01 X-15.9282 Y26.6142 
G01 X-15.9282 Y26.3484 
G01 X-15.8456 Y26.3063 
G01 X-15.6842 Y26.1891 
G01 X-15.5431 Y26.0480 
G01 X-15.4259 Y25.8866 
G01 X-15.3353 Y25.7088 
G01 X-15.2736 Y25.5190 
G01 X-15.2424 Y25.3220 
G00 Z2.5400 
G00 X-10.1624 Y25.3220 
G01 Z-0.1778 F254.00 
G01 X-10.1624 Y22.9380 F508.00 
G01 X-10.1936 Y22.7410 
G01 X-10.2553 Y22.5512 
G01 X-10.3459 Y22.3734 
G01 X-10.4631 Y22.2120 
G01 X-10.6042 Y22.0709 
G01 X-10.7656 Y21.9536 
G01 X-10.8482 Y21.9116 
G01 X-10.8482 Y21.8310 
G01 X-9.9190 Y20.9018 
G01 X-5.3210 Y20.9018 
G01 X-3.1218 Y23.1010 
G01 X-3.1218 Y51.8290 
G01 X-5.3210 Y54.0282 
G01 X-38.0442 Y54.0282 
G01 X-38.1338 Y53.8524 
G01 X-38.2675 Y53.6684 
G01 X-38.4284 Y53.5075 
G01 X-38.6124 Y53.3738 
G01 X-38.8152 Y53.2705 
G01 X-39.0315 Y53.2002 
G01 X-39.2562 Y53.1646 
G01 X-39.4838 Y53.1646 
G01 X-39.7085 Y53.2002 
G01 X-39.9248 Y53.2705 
G01 X-40.1276 Y53.3738 
G01 X-40.3116 Y53.5075 
G01 X-40.4725 Y53.6684 
G01 X-40.6062 Y53.8524 
G01 X-40.7095 Y54.0552 
G01 X-40.7798 Y54.2715 
G01 X-40.8154 Y54.4962 
G01 X-40.8154 Y54.7238 
G01 X-40.7798 Y54.9485 
G01 X-40.7095 Y55.1648 
G01 X-40.6062 Y55.3676 
G01 X-40.4725 Y55.5516 
G01 X-40.3116 Y55.7125 
G01 X-40.1276 Y55.8462 
G01 X-39.9248 Y55.9495 
G01 X-39.7085 Y56.0198 
G01 X-39.4838 Y56.0554 
G01 X-39.2562 Y56.0554 
G01 X-39.0315 Y56.0198 
G01 X-38.8152 Y55.9495 
G01 X-38.6124 Y55.8462 
G01 X-38.4284 Y55.7125 
G01 X-38.2675 Y55.5516 
G01 X-38.1338 Y55.3676 
G01 X-38.0442 Y55.1918 
G01 X-5.0227 Y55.1918 
G01 X-4.9103 Y55.1694 
G01 X-4.8044 Y55.1256 
G01 X-4.7091 Y55.0619 
G01 X-4.6281 Y54.9809 
G01 X-2.0881 Y52.4409 
G01 X-2.0244 Y52.3456 
G01 X-1.9806 Y52.2397 
G01 X-1.9582 Y52.1273 
G01 X-1.9582 Y22.8027 
G01 X-1.9806 Y22.6903 
G01 X-2.0244 Y22.5844 
G01 X-2.0881 Y22.4891 
G01 X-2.1691 Y22.4081 
G01 X-4.7091 Y19.8681 
G01 X-4.8044 Y19.8044 
G01 X-4.9103 Y19.7606 
G01 X-5.0227 Y19.7382 
G01 X-10.2173 Y19.7382 
G01 X-10.3297 Y19.7606 
G01 X-10.4356 Y19.8044 
G01 X-10.5309 Y19.8681 
G01 X-10.6119 Y19.9491 
G01 X-11.8819 Y21.2191 
G01 X-11.9456 Y21.3144 
G01 X-11.9894 Y21.4203 
G01 X-12.0118 Y21.5327 
G01 X-12.0118 Y21.9116 
G01 X-12.0944 Y21.9536 
G01 X-12.2558 Y22.0709 
G01 X-12.3969 Y22.2120 
G01 X-12.5141 Y22.3734 
G01 X-12.6047 Y22.5512 
G01 X-12.6664 Y22.7410 
G01 X-12.6976 Y22.9380 
G01 X-12.6976 Y25.3220 
G01 X-12.6664 Y25.5190 
G01 X-12.6047 Y25.7088 
G01 X-12.5141 Y25.8866 
G01 X-12.3969 Y26.0480 
G01 X-12.2558 Y26.1891 
G01 X-12.0944 Y26.3063 
G01 X-11.9166 Y26.3969 
G01 X-11.7268 Y26.4586 
G01 X-11.5298 Y26.4898 
G01 X-11.3302 Y26.4898 
G01 X-11.1332 Y26.4586 
G01 X-10.9434 Y26.3969 
G01 X-10.7656 Y26.3063 
G01 X-10.6042 Y26.1891 
G01 X-10.4631 Y26.0480 
G01 X-10.3459 Y25.8866 
G01 X-10.2553 Y25.7088 
G01 X-10.1936 Y25.5190 
G01 X-10.1624 Y25.3220 
G00 Z2.5400 
G00 X-61.4402 Y43.7250 
G01 Z-0.1778 F254.00 
G01 X-61.4402 Y45.1750 F508.00 
G01 X-60.4150 Y46.2002 
G01 X-58.9650 Y46.2002 
G01 X-57.9398 Y45.1750 
G01 X-57.9398 Y43.7250 
G01 X-58.9650 Y42.6998 
G01 X-59.1082 Y42.6998 
G01 X-59.1082 Y19.1058 
G01 X-58.9324 Y19.0162 
G01 X-58.7484 Y18.8825 
G01 X-58.5875 Y18.7216 
G01 X-58.4538 Y18.5376 
G01 X-58.3505 Y18.3348 
G01 X-58.2802 Y18.1185 
G01 X-58.2446 Y17.8938 
G01 X-58.2446 Y17.6662 
G01 X-58.2802 Y17.4415 
G01 X-58.3505 Y17.2252 
G01 X-58.4538 Y17.0224 
G01 X-58.5875 Y16.8384 
G01 X-58.7484 Y16.6775 
G01 X-58.9324 Y16.5438 
G01 X-59.1352 Y16.4405 
G01 X-59.3515 Y16.3702 
G01 X-59.5762 Y16.3346 
G01 X-59.8038 Y16.3346 
G01 X-60.0285 Y16.3702 
G01 X-60.2448 Y16.4405 
G01 X-60.4476 Y16.5438 
G01 X-60.6316 Y16.6775 
G01 X-60.7925 Y16.8384 
G01 X-60.9262 Y17.0224 
G01 X-61.0295 Y17.2252 
G01 X-61.0998 Y17.4415 
G01 X-61.1354 Y17.6662 
G01 X-61.1354 Y17.8938 
G01 X-61.0998 Y18.1185 
G01 X-61.0295 Y18.3348 
G01 X-60.9262 Y18.5376 
G01 X-60.7925 Y18.7216 
G01 X-60.6316 Y18.8825 
G01 X-60.4476 Y19.0162 
G01 X-60.2718 Y19.1058 
G01 X-60.2718 Y42.6998 
G01 X-60.4150 Y42.6998 
G01 X-61.4402 Y43.7250 
G00 Z2.5400 
G00 X-43.8174 Y37.9571 
G01 Z-0.1778 F254.00 
G01 X-43.8174 Y35.7029 F508.00 
G01 X-43.8441 Y35.6384 
G01 X-43.8934 Y35.5891 
G01 X-43.9579 Y35.5624 
G01 X-44.9096 Y35.5624 
G01 X-44.9096 Y35.4462 
G01 X-44.9452 Y35.2215 
G01 X-45.0155 Y35.0052 
G01 X-45.1188 Y34.8024 
G01 X-45.2525 Y34.6184 
G01 X-45.4134 Y34.4575 
G01 X-45.5974 Y34.3238 
G01 X-45.8002 Y34.2205 
G01 X-46.0165 Y34.1502 
G01 X-46.2412 Y34.1146 
G01 X-46.4688 Y34.1146 
G01 X-46.6725 Y34.1469 
G01 X-46.8762 Y34.1146 
G01 X-47.1038 Y34.1146 
G01 X-47.3285 Y34.1502 
G01 X-47.5448 Y34.2205 
G01 X-47.7476 Y34.3238 
G01 X-47.9316 Y34.4575 
G01 X-48.0925 Y34.6184 
G01 X-48.2262 Y34.8024 
G01 X-48.3295 Y35.0052 
G01 X-48.3998 Y35.2215 
G01 X-48.4354 Y35.4462 
G01 X-48.4354 Y35.6738 
G01 X-48.3998 Y35.8985 
G01 X-48.3295 Y36.1148 
G01 X-48.2262 Y36.3176 
G01 X-48.0925 Y36.5016 
G01 X-47.9316 Y36.6625 
G01 X-47.7476 Y36.7962 
G01 X-47.5448 Y36.8995 
G01 X-47.3285 Y36.9698 
G01 X-47.1038 Y37.0054 
G01 X-46.8762 Y37.0054 
G01 X-46.6725 Y36.9731 
G01 X-46.4688 Y37.0054 
G01 X-46.3526 Y37.0054 
G01 X-46.3526 Y37.9571 
G01 X-46.3259 Y38.0216 
G01 X-46.2766 Y38.0709 
G01 X-46.2121 Y38.0976 
G01 X-43.9579 Y38.0976 
G01 X-43.8934 Y38.0709 
G01 X-43.8441 Y38.0216 
G01 X-43.8174 Y37.9571 
G00 Z2.5400 
G00 X-41.2774 Y45.5771 
G01 Z-0.1778 F254.00 
G01 X-41.2774 Y43.3229 F508.00 
G01 X-41.3041 Y43.2584 
G01 X-41.3534 Y43.2091 
G01 X-41.4179 Y43.1824 
G01 X-43.6721 Y43.1824 
G01 X-43.7366 Y43.2091 
G01 X-43.7859 Y43.2584 
G01 X-43.8126 Y43.3229 
G01 X-43.8126 Y45.5771 
G01 X-43.7859 Y45.6416 
G01 X-43.7366 Y45.6909 
G01 X-43.6721 Y45.7176 
G01 X-41.4179 Y45.7176 
G01 X-41.3534 Y45.6909 
G01 X-41.3041 Y45.6416 
G01 X-41.2774 Y45.5771 
G00 Z2.5400 
G00 X-41.2774 Y43.0371 
G01 Z-0.1778 F254.00 
G01 X-41.2774 Y42.4918 F508.00 
G01 X-40.6958 Y42.4918 
G01 X-40.6062 Y42.6676 
G01 X-40.4725 Y42.8516 
G01 X-40.3116 Y43.0125 
G01 X-40.1276 Y43.1462 
G01 X-39.9248 Y43.2495 
G01 X-39.7085 Y43.3198 
G01 X-39.4838 Y43.3554 
G01 X-39.2562 Y43.3554 
G01 X-39.0315 Y43.3198 
G01 X-38.8152 Y43.2495 
G01 X-38.6124 Y43.1462 
G01 X-38.4284 Y43.0125 
G01 X-38.2675 Y42.8516 
G01 X-38.1338 Y42.6676 
G01 X-38.0305 Y42.4648 
G01 X-37.9602 Y42.2485 
G01 X-37.9246 Y42.0238 
G01 X-37.9246 Y41.7962 
G01 X-37.9602 Y41.5715 
G01 X-38.0305 Y41.3552 
G01 X-38.1338 Y41.1524 
G01 X-38.2675 Y40.9684 
G01 X-38.4284 Y40.8075 
G01 X-38.6124 Y40.6738 
G01 X-38.8152 Y40.5705 
G01 X-39.0315 Y40.5002 
G01 X-39.2562 Y40.4646 
G01 X-39.4838 Y40.4646 
G01 X-39.7085 Y40.5002 
G01 X-39.9248 Y40.5705 
G01 X-40.1276 Y40.6738 
G01 X-40.3116 Y40.8075 
G01 X-40.4725 Y40.9684 
G01 X-40.6062 Y41.1524 
G01 X-40.6958 Y41.3282 
G01 X-41.2774 Y41.3282 
G01 X-41.2774 Y40.7829 
G01 X-41.3041 Y40.7184 
G01 X-41.3534 Y40.6691 
G01 X-41.4179 Y40.6424 
G01 X-43.6721 Y40.6424 
G01 X-43.7366 Y40.6691 
G01 X-43.7859 Y40.7184 
G01 X-43.8126 Y40.7829 
G01 X-43.8126 Y43.0371 
G01 X-43.7859 Y43.1016 
G01 X-43.7366 Y43.1509 
G01 X-43.6721 Y43.1776 
G01 X-41.4179 Y43.1776 
G01 X-41.3534 Y43.1509 
G01 X-41.3041 Y43.1016 
G01 X-41.2774 Y43.0371 
G00 Z2.5400 
G00 X-41.2774 Y40.4971 
G01 Z-0.1778 F254.00 
G01 X-41.2774 Y39.9518 F508.00 
G01 X-38.0427 Y39.9518 
G01 X-37.9303 Y39.9294 
G01 X-37.8244 Y39.8856 
G01 X-37.7291 Y39.8219 
G01 X-36.4591 Y38.5519 
G01 X-36.3781 Y38.4709 
G01 X-36.3144 Y38.3756 
G01 X-36.2706 Y38.2697 
G01 X-36.2482 Y38.1573 
G01 X-36.2482 Y33.0758 
G01 X-36.0724 Y32.9862 
G01 X-35.8884 Y32.8525 
G01 X-35.7275 Y32.6916 
G01 X-35.5938 Y32.5076 
G01 X-35.4905 Y32.3048 
G01 X-35.4202 Y32.0885 
G01 X-35.3846 Y31.8638 
G01 X-35.3846 Y31.6362 
G01 X-35.4202 Y31.4115 
G01 X-35.4905 Y31.1952 
G01 X-35.5938 Y30.9924 
G01 X-35.7275 Y30.8084 
G01 X-35.8884 Y30.6475 
G01 X-36.0724 Y30.5138 
G01 X-36.2752 Y30.4105 
G01 X-36.4915 Y30.3402 
G01 X-36.7162 Y30.3046 
G01 X-36.9438 Y30.3046 
G01 X-37.1685 Y30.3402 
G01 X-37.3848 Y30.4105 
G01 X-37.5876 Y30.5138 
G01 X-37.7716 Y30.6475 
G01 X-37.9325 Y30.8084 
G01 X-38.0662 Y30.9924 
G01 X-38.1695 Y31.1952 
G01 X-38.2398 Y31.4115 
G01 X-38.2754 Y31.6362 
G01 X-38.2754 Y31.8638 
G01 X-38.2398 Y32.0885 
G01 X-38.1695 Y32.3048 
G01 X-38.0662 Y32.5076 
G01 X-37.9325 Y32.6916 
G01 X-37.7716 Y32.8525 
G01 X-37.5876 Y32.9862 
G01 X-37.4118 Y33.0758 
G01 X-37.4118 Y37.8590 
G01 X-38.3410 Y38.7882 
G01 X-41.2774 Y38.7882 
G01 X-41.2774 Y38.2429 
G01 X-41.3041 Y38.1784 
G01 X-41.3534 Y38.1291 
G01 X-41.4179 Y38.1024 
G01 X-43.6721 Y38.1024 
G01 X-43.7366 Y38.1291 
G01 X-43.7859 Y38.1784 
G01 X-43.8126 Y38.2429 
G01 X-43.8126 Y40.4971 
G01 X-43.7859 Y40.5616 
G01 X-43.7366 Y40.6109 
G01 X-43.6721 Y40.6376 
G01 X-41.4179 Y40.6376 
G01 X-41.3534 Y40.6109 
G01 X-41.3041 Y40.5616 
G01 X-41.2774 Y40.4971 
G00 Z2.5400 
G00 X-43.8174 Y43.0371 
G01 Z-0.1778 F254.00 
G01 X-43.8174 Y40.7829 F508.00 
G01 X-43.8441 Y40.7184 
G01 X-43.8934 Y40.6691 
G01 X-43.9579 Y40.6424 
G01 X-46.2121 Y40.6424 
G01 X-46.2766 Y40.6691 
G01 X-46.3259 Y40.7184 
G01 X-46.3526 Y40.7829 
G01 X-46.3526 Y41.3282 
G01 X-50.5590 Y41.3282 
G01 X-52.7582 Y39.1290 
G01 X-52.7582 Y21.8310 
G01 X-52.5961 Y21.6689 
G01 X-52.4085 Y21.7298 
G01 X-52.1838 Y21.7654 
G01 X-51.9562 Y21.7654 
G01 X-51.7315 Y21.7298 
G01 X-51.5152 Y21.6595 
G01 X-51.3124 Y21.5562 
G01 X-51.1284 Y21.4225 
G01 X-50.9675 Y21.2616 
G01 X-50.8338 Y21.0776 
G01 X-50.7305 Y20.8748 
G01 X-50.6602 Y20.6585 
G01 X-50.6246 Y20.4338 
G01 X-50.6246 Y20.2062 
G01 X-50.6602 Y19.9815 
G01 X-50.7305 Y19.7652 
G01 X-50.8338 Y19.5624 
G01 X-50.9675 Y19.3784 
G01 X-51.1284 Y19.2175 
G01 X-51.3124 Y19.0838 
G01 X-51.5152 Y18.9805 
G01 X-51.7315 Y18.9102 
G01 X-51.9562 Y18.8746 
G01 X-52.1838 Y18.8746 
G01 X-52.4085 Y18.9102 
G01 X-52.6248 Y18.9805 
G01 X-52.8276 Y19.0838 
G01 X-53.0116 Y19.2175 
G01 X-53.1725 Y19.3784 
G01 X-53.3062 Y19.5624 
G01 X-53.4095 Y19.7652 
G01 X-53.4798 Y19.9815 
G01 X-53.5154 Y20.2062 
G01 X-53.5154 Y20.4338 
G01 X-53.4798 Y20.6585 
G01 X-53.4189 Y20.8461 
G01 X-53.7919 Y21.2191 
G01 X-53.8556 Y21.3144 
G01 X-53.8994 Y21.4203 
G01 X-53.9218 Y21.5327 
G01 X-53.9218 Y39.4273 
G01 X-53.8994 Y39.5397 
G01 X-53.8556 Y39.6456 
G01 X-53.7919 Y39.7409 
G01 X-53.7109 Y39.8219 
G01 X-51.1709 Y42.3619 
G01 X-51.0756 Y42.4256 
G01 X-50.9697 Y42.4694 
G01 X-50.8573 Y42.4918 
G01 X-46.3526 Y42.4918 
G01 X-46.3526 Y43.0371 
G01 X-46.3259 Y43.1016 
G01 X-46.2766 Y43.1509 
G01 X-46.2121 Y43.1776 
G01 X-43.9579 Y43.1776 
G01 X-43.8934 Y43.1509 
G01 X-43.8441 Y43.1016 
G01 X-43.8174 Y43.0371 
G00 Z2.5400 
G00 X-43.8174 Y45.5771 
G01 Z-0.1778 F254.00 
G01 X-43.8174 Y43.3229 F508.00 
G01 X-43.8441 Y43.2584 
G01 X-43.8934 Y43.2091 
G01 X-43.9579 Y43.1824 
G01 X-46.2121 Y43.1824 
G01 X-46.2766 Y43.2091 
G01 X-46.3259 Y43.2584 
G01 X-46.3526 Y43.3229 
G01 X-46.3526 Y45.5771 
G01 X-46.3259 Y45.6416 
G01 X-46.2766 Y45.6909 
G01 X-46.2121 Y45.7176 
G01 X-45.7715 Y45.7176 
G01 X-45.8426 Y45.7538 
G01 X-46.0266 Y45.8875 
G01 X-46.1875 Y46.0484 
G01 X-46.3212 Y46.2324 
G01 X-46.4245 Y46.4352 
G01 X-46.4948 Y46.6515 
G01 X-46.5304 Y46.8762 
G01 X-46.5304 Y47.1038 
G01 X-46.4948 Y47.3285 
G01 X-46.4245 Y47.5448 
G01 X-46.3212 Y47.7476 
G01 X-46.1875 Y47.9316 
G01 X-46.0266 Y48.0925 
G01 X-45.8426 Y48.2262 
G01 X-45.6398 Y48.3295 
G01 X-45.4235 Y48.3998 
G01 X-45.1988 Y48.4354 
G01 X-44.9712 Y48.4354 
G01 X-44.7465 Y48.3998 
G01 X-44.5302 Y48.3295 
G01 X-44.3274 Y48.2262 
G01 X-44.1434 Y48.0925 
G01 X-43.9825 Y47.9316 
G01 X-43.8488 Y47.7476 
G01 X-43.7455 Y47.5448 
G01 X-43.6752 Y47.3285 
G01 X-43.6396 Y47.1038 
G01 X-43.6396 Y46.8762 
G01 X-43.6752 Y46.6515 
G01 X-43.7455 Y46.4352 
G01 X-43.8488 Y46.2324 
G01 X-43.9825 Y46.0484 
G01 X-44.1434 Y45.8875 
G01 X-44.3274 Y45.7538 
G01 X-44.3985 Y45.7176 
G01 X-43.9579 Y45.7176 
G01 X-43.8934 Y45.6909 
G01 X-43.8441 Y45.6416 
G01 X-43.8174 Y45.5771 
G00 Z2.5400 
G00 X-7.6224 Y25.3220 
G01 Z-0.1778 F254.00 
G01 X-7.6224 Y24.7118 F508.00 
G01 X-6.5910 Y24.7118 
G01 X-4.3918 Y26.9110 
G01 X-4.3918 Y50.5590 
G01 X-5.3210 Y51.4882 
G01 X-43.7592 Y51.4882 
G01 X-43.8488 Y51.3124 
G01 X-43.9825 Y51.1284 
G01 X-44.1434 Y50.9675 
G01 X-44.3274 Y50.8338 
G01 X-44.5302 Y50.7305 
G01 X-44.7465 Y50.6602 
G01 X-44.9712 Y50.6246 
G01 X-45.1988 Y50.6246 
G01 X-45.4235 Y50.6602 
G01 X-45.6398 Y50.7305 
G01 X-45.8426 Y50.8338 
G01 X-46.0266 Y50.9675 
G01 X-46.1875 Y51.1284 
G01 X-46.3212 Y51.3124 
G01 X-46.4245 Y51.5152 
G01 X-46.4948 Y51.7315 
G01 X-46.5304 Y51.9562 
G01 X-46.5304 Y52.1838 
G01 X-46.4948 Y52.4085 
G01 X-46.4245 Y52.6248 
G01 X-46.3212 Y52.8276 
G01 X-46.1875 Y53.0116 
G01 X-46.0266 Y53.1725 
G01 X-45.8426 Y53.3062 
G01 X-45.6398 Y53.4095 
G01 X-45.4235 Y53.4798 
G01 X-45.1988 Y53.5154 
G01 X-44.9712 Y53.5154 
G01 X-44.7465 Y53.4798 
G01 X-44.5302 Y53.4095 
G01 X-44.3274 Y53.3062 
G01 X-44.1434 Y53.1725 
G01 X-43.9825 Y53.0116 
G01 X-43.8488 Y52.8276 
G01 X-43.7592 Y52.6518 
G01 X-5.0227 Y52.6518 
G01 X-4.9103 Y52.6294 
G01 X-4.8044 Y52.5856 
G01 X-4.7091 Y52.5219 
G01 X-4.6281 Y52.4409 
G01 X-3.3581 Y51.1709 
G01 X-3.2944 Y51.0756 
G01 X-3.2506 Y50.9697 
G01 X-3.2282 Y50.8573 
G01 X-3.2282 Y26.6127 
G01 X-3.2506 Y26.5003 
G01 X-3.2944 Y26.3944 
G01 X-3.3581 Y26.2991 
G01 X-3.4391 Y26.2181 
G01 X-5.9791 Y23.6781 
G01 X-6.0744 Y23.6144 
G01 X-6.1803 Y23.5706 
G01 X-6.2927 Y23.5482 
G01 X-7.6224 Y23.5482 
G01 X-7.6224 Y22.9380 
G01 X-7.6536 Y22.7410 
G01 X-7.7153 Y22.5512 
G01 X-7.8059 Y22.3734 
G01 X-7.9231 Y22.2120 
G01 X-8.0642 Y22.0709 
G01 X-8.2256 Y21.9536 
G01 X-8.4034 Y21.8631 
G01 X-8.5932 Y21.8014 
G01 X-8.7902 Y21.7702 
G01 X-8.9898 Y21.7702 
G01 X-9.1868 Y21.8014 
G01 X-9.3766 Y21.8631 
G01 X-9.5544 Y21.9536 
G01 X-9.7158 Y22.0709 
G01 X-9.8569 Y22.2120 
G01 X-9.9741 Y22.3734 
G01 X-10.0647 Y22.5512 
G01 X-10.1264 Y22.7410 
G01 X-10.1576 Y22.9380 
G01 X-10.1576 Y25.3220 
G01 X-10.1264 Y25.5190 
G01 X-10.0647 Y25.7088 
G01 X-9.9741 Y25.8866 
G01 X-9.8569 Y26.0480 
G01 X-9.7158 Y26.1891 
G01 X-9.5544 Y26.3063 
G01 X-9.3766 Y26.3969 
G01 X-9.1868 Y26.4586 
G01 X-8.9898 Y26.4898 
G01 X-8.7902 Y26.4898 
G01 X-8.5932 Y26.4586 
G01 X-8.4034 Y26.3969 
G01 X-8.2256 Y26.3063 
G01 X-8.0642 Y26.1891 
G01 X-7.9231 Y26.0480 
G01 X-7.8059 Y25.8866 
G01 X-7.7153 Y25.7088 
G01 X-7.6536 Y25.5190 
G01 X-7.6224 Y25.3220 
G00 Z2.5400 
G00 X-12.7024 Y25.3220 
G01 Z-0.1778 F254.00 
G01 X-12.7024 Y22.9380 F508.00 
G01 X-12.7336 Y22.7410 
G01 X-12.7953 Y22.5512 
G01 X-12.8859 Y22.3734 
G01 X-13.0031 Y22.2120 
G01 X-13.1442 Y22.0709 
G01 X-13.3056 Y21.9536 
G01 X-13.4834 Y21.8631 
G01 X-13.6732 Y21.8014 
G01 X-13.8702 Y21.7702 
G01 X-14.0698 Y21.7702 
G01 X-14.2668 Y21.8014 
G01 X-14.4566 Y21.8631 
G01 X-14.6344 Y21.9536 
G01 X-14.7958 Y22.0709 
G01 X-14.9369 Y22.2120 
G01 X-15.0541 Y22.3734 
G01 X-15.1447 Y22.5512 
G01 X-15.2064 Y22.7410 
G01 X-15.2376 Y22.9380 
G01 X-15.2376 Y25.3220 
G01 X-15.2064 Y25.5190 
G01 X-15.1447 Y25.7088 
G01 X-15.0541 Y25.8866 
G01 X-14.9369 Y26.0480 
G01 X-14.7958 Y26.1891 
G01 X-14.6344 Y26.3063 
G01 X-14.4566 Y26.3969 
G01 X-14.2668 Y26.4586 
G01 X-14.0698 Y26.4898 
G01 X-13.8702 Y26.4898 
G01 X-13.6732 Y26.4586 
G01 X-13.4834 Y26.3969 
G01 X-13.3056 Y26.3063 
G01 X-13.1442 Y26.1891 
G01 X-13.0031 Y26.0480 
G01 X-12.8859 Y25.8866 
G01 X-12.7953 Y25.7088 
G01 X-12.7336 Y25.5190 
G01 X-12.7024 Y25.3220 
G00 Z2.5400 
G00 X-17.7824 Y25.3220 
G01 Z-0.1778 F254.00 
G01 X-17.7824 Y22.9380 F508.00 
G01 X-17.8136 Y22.7410 
G01 X-17.8753 Y22.5512 
G01 X-17.9658 Y22.3734 
G01 X-18.0831 Y22.2120 
G01 X-18.2242 Y22.0709 
G01 X-18.3856 Y21.9536 
G01 X-18.5634 Y21.8631 
G01 X-18.7532 Y21.8014 
G01 X-18.9502 Y21.7702 
G01 X-19.1498 Y21.7702 
G01 X-19.3468 Y21.8014 
G01 X-19.5366 Y21.8631 
G01 X-19.7144 Y21.9536 
G01 X-19.8758 Y22.0709 
G01 X-20.0169 Y22.2120 
G01 X-20.1341 Y22.3734 
G01 X-20.2247 Y22.5512 
G01 X-20.2864 Y22.7410 
G01 X-20.3176 Y22.9380 
G01 X-20.3176 Y25.3220 
G01 X-20.2864 Y25.5190 
G01 X-20.2247 Y25.7088 
G01 X-20.1341 Y25.8866 
G01 X-20.0169 Y26.0480 
G01 X-19.8758 Y26.1891 
G01 X-19.7144 Y26.3063 
G01 X-19.6318 Y26.3484 
G01 X-19.6318 Y30.4242 
G01 X-19.8076 Y30.5138 
G01 X-19.9916 Y30.6475 
G01 X-20.1525 Y30.8084 
G01 X-20.2862 Y30.9924 
G01 X-20.3895 Y31.1952 
G01 X-20.4598 Y31.4115 
G01 X-20.4954 Y31.6362 
G01 X-20.4954 Y31.8638 
G01 X-20.4598 Y32.0885 
G01 X-20.3895 Y32.3048 
G01 X-20.2862 Y32.5076 
G01 X-20.1525 Y32.6916 
G01 X-19.9916 Y32.8525 
G01 X-19.8076 Y32.9862 
G01 X-19.6048 Y33.0895 
G01 X-19.3885 Y33.1598 
G01 X-19.1638 Y33.1954 
G01 X-18.9362 Y33.1954 
G01 X-18.7115 Y33.1598 
G01 X-18.4952 Y33.0895 
G01 X-18.2924 Y32.9862 
G01 X-18.1084 Y32.8525 
G01 X-17.9475 Y32.6916 
G01 X-17.8138 Y32.5076 
G01 X-17.7105 Y32.3048 
G01 X-17.6402 Y32.0885 
G01 X-17.6046 Y31.8638 
G01 X-17.6046 Y31.6362 
G01 X-17.6402 Y31.4115 
G01 X-17.7105 Y31.1952 
G01 X-17.8138 Y30.9924 
G01 X-17.9475 Y30.8084 
G01 X-18.1084 Y30.6475 
G01 X-18.2924 Y30.5138 
G01 X-18.4682 Y30.4242 
G01 X-18.4682 Y26.3484 
G01 X-18.3856 Y26.3063 
G01 X-18.2242 Y26.1891 
G01 X-18.0831 Y26.0480 
G01 X-17.9658 Y25.8866 
G01 X-17.8753 Y25.7088 
G01 X-17.8136 Y25.5190 
G01 X-17.7824 Y25.3220 
G00 Z2.5400 
G00 X-22.8624 Y25.3220 
G01 Z-0.1778 F254.00 
G01 X-22.8624 Y22.9380 F508.00 
G01 X-22.8936 Y22.7410 
G01 X-22.9553 Y22.5512 
G01 X-23.0459 Y22.3734 
G01 X-23.1631 Y22.2120 
G01 X-23.3042 Y22.0709 
G01 X-23.4656 Y21.9536 
G01 X-23.6434 Y21.8631 
G01 X-23.8332 Y21.8014 
G01 X-24.0302 Y21.7702 
G01 X-24.2298 Y21.7702 
G01 X-24.4268 Y21.8014 
G01 X-24.6166 Y21.8631 
G01 X-24.7944 Y21.9536 
G01 X-24.9558 Y22.0709 
G01 X-25.0969 Y22.2120 
G01 X-25.2141 Y22.3734 
G01 X-25.3047 Y22.5512 
G01 X-25.3664 Y22.7410 
G01 X-25.3976 Y22.9380 
G01 X-25.3976 Y25.3220 
G01 X-25.3664 Y25.5190 
G01 X-25.3047 Y25.7088 
G01 X-25.2141 Y25.8866 
G01 X-25.0969 Y26.0480 
G01 X-24.9558 Y26.1891 
G01 X-24.7944 Y26.3063 
G01 X-24.6166 Y26.3969 
G01 X-24.4268 Y26.4586 
G01 X-24.2298 Y26.4898 
G01 X-24.0302 Y26.4898 
G01 X-23.8332 Y26.4586 
G01 X-23.6434 Y26.3969 
G01 X-23.4656 Y26.3063 
G01 X-23.3042 Y26.1891 
G01 X-23.1631 Y26.0480 
G01 X-23.0459 Y25.8866 
G01 X-22.9553 Y25.7088 
G01 X-22.8936 Y25.5190 
G01 X-22.8624 Y25.3220 
G00 Z2.5400 
G00 X-27.9424 Y25.3220 
G01 Z-0.1778 F254.00 
G01 X-27.9424 Y22.9380 F508.00 
G01 X-27.9736 Y22.7410 
G01 X-28.0353 Y22.5512 
G01 X-28.1258 Y22.3734 
G01 X-28.2431 Y22.2120 
G01 X-28.3842 Y22.0709 
G01 X-28.5456 Y21.9536 
G01 X-28.7234 Y21.8631 
G01 X-28.9132 Y21.8014 
G01 X-29.1102 Y21.7702 
G01 X-29.3098 Y21.7702 
G01 X-29.5068 Y21.8014 
G01 X-29.6966 Y21.8631 
G01 X-29.8744 Y21.9536 
G01 X-30.0358 Y22.0709 
G01 X-30.1769 Y22.2120 
G01 X-30.2941 Y22.3734 
G01 X-30.3847 Y22.5512 
G01 X-30.4464 Y22.7410 
G01 X-30.4776 Y22.9380 
G01 X-30.4776 Y25.3220 
G01 X-30.4464 Y25.5190 
G01 X-30.3847 Y25.7088 
G01 X-30.2941 Y25.8866 
G01 X-30.1769 Y26.0480 
G01 X-30.0358 Y26.1891 
G01 X-29.8744 Y26.3063 
G01 X-29.7918 Y26.3484 
G01 X-29.7918 Y33.0773 
G01 X-29.7694 Y33.1897 
G01 X-29.7256 Y33.2956 
G01 X-29.6619 Y33.3909 
G01 X-29.5809 Y33.4719 
G01 X-28.3109 Y34.7419 
G01 X-28.2156 Y34.8056 
G01 X-28.1097 Y34.8494 
G01 X-27.9973 Y34.8718 
G01 X-25.6410 Y34.8718 
G01 X-23.4418 Y37.0710 
G01 X-23.4418 Y38.0442 
G01 X-23.6176 Y38.1338 
G01 X-23.8016 Y38.2675 
G01 X-23.9625 Y38.4284 
G01 X-24.0962 Y38.6124 
G01 X-24.1995 Y38.8152 
G01 X-24.2698 Y39.0315 
G01 X-24.3054 Y39.2562 
G01 X-24.3054 Y39.4838 
G01 X-24.2698 Y39.7085 
G01 X-24.1995 Y39.9248 
G01 X-24.0962 Y40.1276 
G01 X-23.9625 Y40.3116 
G01 X-23.8016 Y40.4725 
G01 X-23.6176 Y40.6062 
G01 X-23.4418 Y40.6958 
G01 X-23.4418 Y41.9673 
G01 X-23.4194 Y42.0797 
G01 X-23.3756 Y42.1856 
G01 X-23.3119 Y42.2809 
G01 X-23.2309 Y42.3619 
G01 X-23.1356 Y42.4256 
G01 X-23.0297 Y42.4694 
G01 X-22.9173 Y42.4918 
G01 X-20.3758 Y42.4918 
G01 X-20.2862 Y42.6676 
G01 X-20.1525 Y42.8516 
G01 X-19.9916 Y43.0125 
G01 X-19.8076 Y43.1462 
G01 X-19.6048 Y43.2495 
G01 X-19.3885 Y43.3198 
G01 X-19.1638 Y43.3554 
G01 X-16.3962 Y43.3554 
G01 X-16.1715 Y43.3198 
G01 X-15.9552 Y43.2495 
G01 X-15.7524 Y43.1462 
G01 X-15.5684 Y43.0125 
G01 X-15.4075 Y42.8516 
G01 X-15.2738 Y42.6676 
G01 X-15.1705 Y42.4648 
G01 X-15.1002 Y42.2485 
G01 X-15.0646 Y42.0238 
G01 X-15.0646 Y41.7962 
G01 X-15.1002 Y41.5715 
G01 X-15.1705 Y41.3552 
G01 X-15.2738 Y41.1524 
G01 X-15.4075 Y40.9684 
G01 X-15.5684 Y40.8075 
G01 X-15.7524 Y40.6738 
G01 X-15.9552 Y40.5705 
G01 X-16.1715 Y40.5002 
G01 X-16.3962 Y40.4646 
G01 X-19.1638 Y40.4646 
G01 X-19.3885 Y40.5002 
G01 X-19.6048 Y40.5705 
G01 X-19.8076 Y40.6738 
G01 X-19.9916 Y40.8075 
G01 X-20.1525 Y40.9684 
G01 X-20.2862 Y41.1524 
G01 X-20.3758 Y41.3282 
G01 X-22.2782 Y41.3282 
G01 X-22.2782 Y40.6958 
G01 X-22.1024 Y40.6062 
G01 X-21.9184 Y40.4725 
G01 X-21.7575 Y40.3116 
G01 X-21.6238 Y40.1276 
G01 X-21.5205 Y39.9248 
G01 X-21.4502 Y39.7085 
G01 X-21.4146 Y39.4838 
G01 X-21.4146 Y39.2562 
G01 X-21.4502 Y39.0315 
G01 X-21.5205 Y38.8152 
G01 X-21.6238 Y38.6124 
G01 X-21.7575 Y38.4284 
G01 X-21.9184 Y38.2675 
G01 X-22.1024 Y38.1338 
G01 X-22.2782 Y38.0442 
G01 X-22.2782 Y36.7727 
G01 X-22.3006 Y36.6603 
G01 X-22.3444 Y36.5544 
G01 X-22.4081 Y36.4591 
G01 X-24.9481 Y33.9191 
G01 X-25.0291 Y33.8381 
G01 X-25.1244 Y33.7744 
G01 X-25.2303 Y33.7306 
G01 X-25.3427 Y33.7082 
G01 X-27.6990 Y33.7082 
G01 X-28.6282 Y32.7790 
G01 X-28.6282 Y26.3484 
G01 X-28.5456 Y26.3063 
G01 X-28.3842 Y26.1891 
G01 X-28.2431 Y26.0480 
G01 X-28.1258 Y25.8866 
G01 X-28.0353 Y25.7088 
G01 X-27.9736 Y25.5190 
G01 X-27.9424 Y25.3220 
G00 Z2.5400 
G00 X-33.0224 Y25.3220 
G01 Z-0.1778 F254.00 
G01 X-33.0224 Y22.9380 F508.00 
G01 X-33.0536 Y22.7410 
G01 X-33.1153 Y22.5512 
G01 X-33.2058 Y22.3734 
G01 X-33.3231 Y22.2120 
G01 X-33.4642 Y22.0709 
G01 X-33.6256 Y21.9536 
G01 X-33.8034 Y21.8631 
G01 X-33.9932 Y21.8014 
G01 X-34.1902 Y21.7702 
G01 X-34.3898 Y21.7702 
G01 X-34.5868 Y21.8014 
G01 X-34.7766 Y21.8631 
G01 X-34.9544 Y21.9536 
G01 X-35.1158 Y22.0709 
G01 X-35.2569 Y22.2120 
G01 X-35.3741 Y22.3734 
G01 X-35.4647 Y22.5512 
G01 X-35.5264 Y22.7410 
G01 X-35.5576 Y22.9380 
G01 X-35.5576 Y25.3220 
G01 X-35.5264 Y25.5190 
G01 X-35.4647 Y25.7088 
G01 X-35.3741 Y25.8866 
G01 X-35.2569 Y26.0480 
G01 X-35.1158 Y26.1891 
G01 X-34.9544 Y26.3063 
G01 X-34.8718 Y26.3484 
G01 X-34.8718 Y38.0442 
G01 X-35.0476 Y38.1338 
G01 X-35.2316 Y38.2675 
G01 X-35.3925 Y38.4284 
G01 X-35.5262 Y38.6124 
G01 X-35.6295 Y38.8152 
G01 X-35.6998 Y39.0315 
G01 X-35.7354 Y39.2562 
G01 X-35.7354 Y39.4838 
G01 X-35.6998 Y39.7085 
G01 X-35.6295 Y39.9248 
G01 X-35.5262 Y40.1276 
G01 X-35.3925 Y40.3116 
G01 X-35.2316 Y40.4725 
G01 X-35.0476 Y40.6062 
G01 X-34.8718 Y40.6958 
G01 X-34.8718 Y41.9673 
G01 X-34.8494 Y42.0797 
G01 X-34.8056 Y42.1856 
G01 X-34.7419 Y42.2809 
G01 X-34.6609 Y42.3619 
G01 X-34.5656 Y42.4256 
G01 X-34.4597 Y42.4694 
G01 X-34.3473 Y42.4918 
G01 X-31.8058 Y42.4918 
G01 X-31.7162 Y42.6676 
G01 X-31.5825 Y42.8516 
G01 X-31.4216 Y43.0125 
G01 X-31.2376 Y43.1462 
G01 X-31.0348 Y43.2495 
G01 X-30.8185 Y43.3198 
G01 X-30.5938 Y43.3554 
G01 X-27.8262 Y43.3554 
G01 X-27.6015 Y43.3198 
G01 X-27.3852 Y43.2495 
G01 X-27.1824 Y43.1462 
G01 X-26.9984 Y43.0125 
G01 X-26.8375 Y42.8516 
G01 X-26.7038 Y42.6676 
G01 X-26.6005 Y42.4648 
G01 X-26.5302 Y42.2485 
G01 X-26.4946 Y42.0238 
G01 X-26.4946 Y41.7962 
G01 X-26.5302 Y41.5715 
G01 X-26.6005 Y41.3552 
G01 X-26.7038 Y41.1524 
G01 X-26.8375 Y40.9684 
G01 X-26.9984 Y40.8075 
G01 X-27.1824 Y40.6738 
G01 X-27.3852 Y40.5705 
G01 X-27.6015 Y40.5002 
G01 X-27.8262 Y40.4646 
G01 X-30.5938 Y40.4646 
G01 X-30.8185 Y40.5002 
G01 X-31.0348 Y40.5705 
G01 X-31.2376 Y40.6738 
G01 X-31.4216 Y40.8075 
G01 X-31.5825 Y40.9684 
G01 X-31.7162 Y41.1524 
G01 X-31.8058 Y41.3282 
G01 X-33.7082 Y41.3282 
G01 X-33.7082 Y40.6958 
G01 X-33.5324 Y40.6062 
G01 X-33.3484 Y40.4725 
G01 X-33.1875 Y40.3116 
G01 X-33.0538 Y40.1276 
G01 X-32.9505 Y39.9248 
G01 X-32.8802 Y39.7085 
G01 X-32.8446 Y39.4838 
G01 X-32.8446 Y39.2562 
G01 X-32.8802 Y39.0315 
G01 X-32.9505 Y38.8152 
G01 X-33.0538 Y38.6124 
G01 X-33.1875 Y38.4284 
G01 X-33.3484 Y38.2675 
G01 X-33.5324 Y38.1338 
G01 X-33.7082 Y38.0442 
G01 X-33.7082 Y26.3484 
G01 X-33.6256 Y26.3063 
G01 X-33.4642 Y26.1891 
G01 X-33.3231 Y26.0480 
G01 X-33.2058 Y25.8866 
G01 X-33.1153 Y25.7088 
G01 X-33.0536 Y25.5190 
G01 X-33.0224 Y25.3220 
G00 Z2.5400 
G00 X-38.1024 Y25.3220 
G01 Z-0.1778 F254.00 
G01 X-38.1024 Y22.9380 F508.00 
G01 X-38.1336 Y22.7410 
G01 X-38.1953 Y22.5512 
G01 X-38.2859 Y22.3734 
G01 X-38.4031 Y22.2120 
G01 X-38.5442 Y22.0709 
G01 X-38.7056 Y21.9536 
G01 X-38.8834 Y21.8631 
G01 X-39.0732 Y21.8014 
G01 X-39.2702 Y21.7702 
G01 X-39.4698 Y21.7702 
G01 X-39.6668 Y21.8014 
G01 X-39.8566 Y21.8631 
G01 X-40.0344 Y21.9536 
G01 X-40.1958 Y22.0709 
G01 X-40.3369 Y22.2120 
G01 X-40.4541 Y22.3734 
G01 X-40.5447 Y22.5512 
G01 X-40.6064 Y22.7410 
G01 X-40.6376 Y22.9380 
G01 X-40.6376 Y25.3220 
G01 X-40.6064 Y25.5190 
G01 X-40.5447 Y25.7088 
G01 X-40.4541 Y25.8866 
G01 X-40.3369 Y26.0480 
G01 X-40.1958 Y26.1891 
G01 X-40.0344 Y26.3063 
G01 X-39.8566 Y26.3969 
G01 X-39.6668 Y26.4586 
G01 X-39.4698 Y26.4898 
G01 X-39.2702 Y26.4898 
G01 X-39.0732 Y26.4586 
G01 X-38.8834 Y26.3969 
G01 X-38.7056 Y26.3063 
G01 X-38.5442 Y26.1891 
G01 X-38.4031 Y26.0480 
G01 X-38.2859 Y25.8866 
G01 X-38.1953 Y25.7088 
G01 X-38.1336 Y25.5190 
G01 X-38.1024 Y25.3220 
G00 Z2.5400 
G00 X-43.1824 Y25.3220 
G01 Z-0.1778 F254.00 
G01 X-43.1824 Y22.9380 F508.00 
G01 X-43.2136 Y22.7410 
G01 X-43.2753 Y22.5512 
G01 X-43.3659 Y22.3734 
G01 X-43.4831 Y22.2120 
G01 X-43.6242 Y22.0709 
G01 X-43.7856 Y21.9536 
G01 X-43.9634 Y21.8631 
G01 X-44.1532 Y21.8014 
G01 X-44.3502 Y21.7702 
G01 X-44.5498 Y21.7702 
G01 X-44.7468 Y21.8014 
G01 X-44.9366 Y21.8631 
G01 X-45.1144 Y21.9536 
G01 X-45.2758 Y22.0709 
G01 X-45.4169 Y22.2120 
G01 X-45.5341 Y22.3734 
G01 X-45.6247 Y22.5512 
G01 X-45.6864 Y22.7410 
G01 X-45.7176 Y22.9380 
G01 X-45.7176 Y25.3220 
G01 X-45.6864 Y25.5190 
G01 X-45.6247 Y25.7088 
G01 X-45.5341 Y25.8866 
G01 X-45.4169 Y26.0480 
G01 X-45.2758 Y26.1891 
G01 X-45.1144 Y26.3063 
G01 X-44.9366 Y26.3969 
G01 X-44.7468 Y26.4586 
G01 X-44.5498 Y26.4898 
G01 X-44.3502 Y26.4898 
G01 X-44.1532 Y26.4586 
G01 X-43.9634 Y26.3969 
G01 X-43.7856 Y26.3063 
G01 X-43.6242 Y26.1891 
G01 X-43.4831 Y26.0480 
G01 X-43.3659 Y25.8866 
G01 X-43.2753 Y25.7088 
G01 X-43.2136 Y25.5190 
G01 X-43.1824 Y25.3220 
G00 Z2.5400 
G00 X-10.1624 Y10.0820 
G01 Z-0.1778 F254.00 
G01 X-10.1624 Y7.6980 F508.00 
G01 X-10.1936 Y7.5010 
G01 X-10.2553 Y7.3112 
G01 X-10.3459 Y7.1334 
G01 X-10.4631 Y6.9720 
G01 X-10.6042 Y6.8309 
G01 X-10.7656 Y6.7137 
G01 X-10.9434 Y6.6231 
G01 X-11.1332 Y6.5614 
G01 X-11.3302 Y6.5302 
G01 X-11.5298 Y6.5302 
G01 X-11.7268 Y6.5614 
G01 X-11.9166 Y6.6231 
G01 X-12.0944 Y6.7137 
G01 X-12.2558 Y6.8309 
G01 X-12.3969 Y6.9720 
G01 X-12.5141 Y7.1334 
G01 X-12.6047 Y7.3112 
G01 X-12.6664 Y7.5010 
G01 X-12.6976 Y7.6980 
G01 X-12.6976 Y10.0820 
G01 X-12.6664 Y10.2790 
G01 X-12.6047 Y10.4688 
G01 X-12.5141 Y10.6466 
G01 X-12.3969 Y10.8080 
G01 X-12.2558 Y10.9491 
G01 X-12.0944 Y11.0663 
G01 X-12.0118 Y11.1084 
G01 X-12.0118 Y12.4590 
G01 X-16.7510 Y17.1982 
G01 X-47.0473 Y17.1982 
G01 X-47.1597 Y17.2206 
G01 X-47.2656 Y17.2644 
G01 X-47.3609 Y17.3281 
G01 X-48.6309 Y18.5981 
G01 X-48.7119 Y18.6791 
G01 X-48.7756 Y18.7744 
G01 X-48.8194 Y18.8803 
G01 X-48.8418 Y18.9927 
G01 X-48.8418 Y31.8073 
G01 X-48.8194 Y31.9197 
G01 X-48.7756 Y32.0256 
G01 X-48.7119 Y32.1209 
G01 X-47.3609 Y33.4719 
G01 X-47.2656 Y33.5356 
G01 X-47.1597 Y33.5794 
G01 X-47.0473 Y33.6018 
G01 X-43.4210 Y33.6018 
G01 X-43.1268 Y33.8960 
G01 X-43.1268 Y35.5624 
G01 X-43.6721 Y35.5624 
G01 X-43.7366 Y35.5891 
G01 X-43.7859 Y35.6384 
G01 X-43.8126 Y35.7029 
G01 X-43.8126 Y37.9571 
G01 X-43.7859 Y38.0216 
G01 X-43.7366 Y38.0709 
G01 X-43.6721 Y38.0976 
G01 X-41.4179 Y38.0976 
G01 X-41.3534 Y38.0709 
G01 X-41.3041 Y38.0216 
G01 X-41.2774 Y37.9571 
G01 X-41.2774 Y35.7029 
G01 X-41.3041 Y35.6384 
G01 X-41.3534 Y35.5891 
G01 X-41.4179 Y35.5624 
G01 X-41.9632 Y35.5624 
G01 X-41.9632 Y33.5977 
G01 X-41.9856 Y33.4853 
G01 X-42.0294 Y33.3794 
G01 X-42.0931 Y33.2841 
G01 X-42.7281 Y32.6491 
G01 X-42.8091 Y32.5681 
G01 X-42.9044 Y32.5044 
G01 X-43.0103 Y32.4606 
G01 X-43.1227 Y32.4382 
G01 X-46.7490 Y32.4382 
G01 X-47.6782 Y31.5090 
G01 X-47.6782 Y19.2910 
G01 X-46.7490 Y18.3618 
G01 X-16.4527 Y18.3618 
G01 X-16.3403 Y18.3394 
G01 X-16.2344 Y18.2956 
G01 X-16.1391 Y18.2319 
G01 X-16.0581 Y18.1509 
G01 X-10.9781 Y13.0709 
G01 X-10.9144 Y12.9756 
G01 X-10.8706 Y12.8697 
G01 X-10.8482 Y12.7573 
G01 X-10.8482 Y11.1084 
G01 X-10.7656 Y11.0663 
G01 X-10.6042 Y10.9491 
G01 X-10.4631 Y10.8080 
G01 X-10.3459 Y10.6466 
G01 X-10.2553 Y10.4688 
G01 X-10.1936 Y10.2790 
G01 X-10.1624 Y10.0820 
G00 Z2.5400 
G00 X-15.2424 Y10.0820 
G01 Z-0.1778 F254.00 
G01 X-15.2424 Y7.6980 F508.00 
G01 X-15.2736 Y7.5010 
G01 X-15.3353 Y7.3112 
G01 X-15.4259 Y7.1334 
G01 X-15.5431 Y6.9720 
G01 X-15.6842 Y6.8309 
G01 X-15.8456 Y6.7137 
G01 X-16.0234 Y6.6231 
G01 X-16.2132 Y6.5614 
G01 X-16.4102 Y6.5302 
G01 X-16.6098 Y6.5302 
G01 X-16.8068 Y6.5614 
G01 X-16.9966 Y6.6231 
G01 X-17.1744 Y6.7137 
G01 X-17.3358 Y6.8309 
G01 X-17.4769 Y6.9720 
G01 X-17.5941 Y7.1334 
G01 X-17.6847 Y7.3112 
G01 X-17.7464 Y7.5010 
G01 X-17.7776 Y7.6980 
G01 X-17.7776 Y10.0820 
G01 X-17.7464 Y10.2790 
G01 X-17.6847 Y10.4688 
G01 X-17.5941 Y10.6466 
G01 X-17.4769 Y10.8080 
G01 X-17.3358 Y10.9491 
G01 X-17.1744 Y11.0663 
G01 X-16.9966 Y11.1569 
G01 X-16.8068 Y11.2186 
G01 X-16.6098 Y11.2498 
G01 X-16.4102 Y11.2498 
G01 X-16.2132 Y11.2186 
G01 X-16.0234 Y11.1569 
G01 X-15.8456 Y11.0663 
G01 X-15.6842 Y10.9491 
G01 X-15.5431 Y10.8080 
G01 X-15.4259 Y10.6466 
G01 X-15.3353 Y10.4688 
G01 X-15.2736 Y10.2790 
G01 X-15.2424 Y10.0820 
G00 Z2.5400 
G00 X-20.3224 Y10.0820 
G01 Z-0.1778 F254.00 
G01 X-20.3224 Y7.6980 F508.00 
G01 X-20.3536 Y7.5010 
G01 X-20.4153 Y7.3112 
G01 X-20.5059 Y7.1334 
G01 X-20.6231 Y6.9720 
G01 X-20.7642 Y6.8309 
G01 X-20.9256 Y6.7137 
G01 X-21.1034 Y6.6231 
G01 X-21.2932 Y6.5614 
G01 X-21.4902 Y6.5302 
G01 X-21.6898 Y6.5302 
G01 X-21.8868 Y6.5614 
G01 X-22.0766 Y6.6231 
G01 X-22.2544 Y6.7137 
G01 X-22.4158 Y6.8309 
G01 X-22.5569 Y6.9720 
G01 X-22.6741 Y7.1334 
G01 X-22.7647 Y7.3112 
G01 X-22.8264 Y7.5010 
G01 X-22.8576 Y7.6980 
G01 X-22.8576 Y10.0820 
G01 X-22.8264 Y10.2790 
G01 X-22.7647 Y10.4688 
G01 X-22.6741 Y10.6466 
G01 X-22.5569 Y10.8080 
G01 X-22.4158 Y10.9491 
G01 X-22.2544 Y11.0663 
G01 X-22.0766 Y11.1569 
G01 X-21.8868 Y11.2186 
G01 X-21.6898 Y11.2498 
G01 X-21.4902 Y11.2498 
G01 X-21.2932 Y11.2186 
G01 X-21.1034 Y11.1569 
G01 X-20.9256 Y11.0663 
G01 X-20.7642 Y10.9491 
G01 X-20.6231 Y10.8080 
G01 X-20.5059 Y10.6466 
G01 X-20.4153 Y10.4688 
G01 X-20.3536 Y10.2790 
G01 X-20.3224 Y10.0820 
G00 Z2.5400 
G00 X-25.4024 Y10.0820 
G01 Z-0.1778 F254.00 
G01 X-25.4024 Y7.6980 F508.00 
G01 X-25.4336 Y7.5010 
G01 X-25.4953 Y7.3112 
G01 X-25.5859 Y7.1334 
G01 X-25.7031 Y6.9720 
G01 X-25.8442 Y6.8309 
G01 X-26.0056 Y6.7137 
G01 X-26.0882 Y6.6716 
G01 X-26.0882 Y3.7527 
G01 X-26.1106 Y3.6403 
G01 X-26.1544 Y3.5344 
G01 X-26.2181 Y3.4391 
G01 X-26.2991 Y3.3581 
G01 X-27.5691 Y2.0881 
G01 X-27.6644 Y2.0244 
G01 X-27.7703 Y1.9806 
G01 X-27.8827 Y1.9582 
G01 X-48.2042 Y1.9582 
G01 X-48.2938 Y1.7824 
G01 X-48.4275 Y1.5984 
G01 X-48.5884 Y1.4375 
G01 X-48.7724 Y1.3038 
G01 X-48.9752 Y1.2005 
G01 X-49.1915 Y1.1302 
G01 X-49.4162 Y1.0946 
G01 X-49.6438 Y1.0946 
G01 X-49.8685 Y1.1302 
G01 X-50.0848 Y1.2005 
G01 X-50.2876 Y1.3038 
G01 X-50.4716 Y1.4375 
G01 X-50.6325 Y1.5984 
G01 X-50.7662 Y1.7824 
G01 X-50.8695 Y1.9852 
G01 X-50.9398 Y2.2015 
G01 X-50.9754 Y2.4262 
G01 X-50.9754 Y2.6538 
G01 X-50.9398 Y2.8785 
G01 X-50.8695 Y3.0948 
G01 X-50.7662 Y3.2976 
G01 X-50.6325 Y3.4816 
G01 X-50.4716 Y3.6425 
G01 X-50.2876 Y3.7762 
G01 X-50.0848 Y3.8795 
G01 X-49.8685 Y3.9498 
G01 X-49.6438 Y3.9854 
G01 X-49.4162 Y3.9854 
G01 X-49.1915 Y3.9498 
G01 X-48.9752 Y3.8795 
G01 X-48.7724 Y3.7762 
G01 X-48.5884 Y3.6425 
G01 X-48.4275 Y3.4816 
G01 X-48.2938 Y3.2976 
G01 X-48.2042 Y3.1218 
G01 X-28.1810 Y3.1218 
G01 X-27.2518 Y4.0510 
G01 X-27.2518 Y6.6716 
G01 X-27.3344 Y6.7137 
G01 X-27.4958 Y6.8309 
G01 X-27.6369 Y6.9720 
G01 X-27.7541 Y7.1334 
G01 X-27.8447 Y7.3112 
G01 X-27.9064 Y7.5010 
G01 X-27.9376 Y7.6980 
G01 X-27.9376 Y10.0820 
G01 X-27.9064 Y10.2790 
G01 X-27.8447 Y10.4688 
G01 X-27.7541 Y10.6466 
G01 X-27.6369 Y10.8080 
G01 X-27.4958 Y10.9491 
G01 X-27.3344 Y11.0663 
G01 X-27.1566 Y11.1569 
G01 X-26.9668 Y11.2186 
G01 X-26.7698 Y11.2498 
G01 X-26.5702 Y11.2498 
G01 X-26.3732 Y11.2186 
G01 X-26.1834 Y11.1569 
G01 X-26.0056 Y11.0663 
G01 X-25.8442 Y10.9491 
G01 X-25.7031 Y10.8080 
G01 X-25.5859 Y10.6466 
G01 X-25.4953 Y10.4688 
G01 X-25.4336 Y10.2790 
G01 X-25.4024 Y10.0820 
G00 Z2.5400 
G00 X-30.4824 Y10.0820 
G01 Z-0.1778 F254.00 
G01 X-30.4824 Y7.6980 F508.00 
G01 X-30.5136 Y7.5010 
G01 X-30.5753 Y7.3112 
G01 X-30.6659 Y7.1334 
G01 X-30.7831 Y6.9720 
G01 X-30.9242 Y6.8309 
G01 X-31.0856 Y6.7137 
G01 X-31.2634 Y6.6231 
G01 X-31.4532 Y6.5614 
G01 X-31.6502 Y6.5302 
G01 X-31.8498 Y6.5302 
G01 X-32.0468 Y6.5614 
G01 X-32.2366 Y6.6231 
G01 X-32.4144 Y6.7137 
G01 X-32.5758 Y6.8309 
G01 X-32.7169 Y6.9720 
G01 X-32.8341 Y7.1334 
G01 X-32.9247 Y7.3112 
G01 X-32.9864 Y7.5010 
G01 X-33.0176 Y7.6980 
G01 X-33.0176 Y10.0820 
G01 X-32.9864 Y10.2790 
G01 X-32.9247 Y10.4688 
G01 X-32.8341 Y10.6466 
G01 X-32.7169 Y10.8080 
G01 X-32.5758 Y10.9491 
G01 X-32.4144 Y11.0663 
G01 X-32.2366 Y11.1569 
G01 X-32.0468 Y11.2186 
G01 X-31.8498 Y11.2498 
G01 X-31.6502 Y11.2498 
G01 X-31.4532 Y11.2186 
G01 X-31.2634 Y11.1569 
G01 X-31.0856 Y11.0663 
G01 X-30.9242 Y10.9491 
G01 X-30.7831 Y10.8080 
G01 X-30.6659 Y10.6466 
G01 X-30.5753 Y10.4688 
G01 X-30.5136 Y10.2790 
G01 X-30.4824 Y10.0820 
G00 Z2.5400 
G00 X-35.5624 Y10.0820 
G01 Z-0.1778 F254.00 
G01 X-35.5624 Y7.6980 F508.00 
G01 X-35.5936 Y7.5010 
G01 X-35.6553 Y7.3112 
G01 X-35.7459 Y7.1334 
G01 X-35.8631 Y6.9720 
G01 X-36.0042 Y6.8309 
G01 X-36.1656 Y6.7137 
G01 X-36.3434 Y6.6231 
G01 X-36.5332 Y6.5614 
G01 X-36.7302 Y6.5302 
G01 X-36.9298 Y6.5302 
G01 X-37.1268 Y6.5614 
G01 X-37.3166 Y6.6231 
G01 X-37.4944 Y6.7137 
G01 X-37.6558 Y6.8309 
G01 X-37.7969 Y6.9720 
G01 X-37.9141 Y7.1334 
G01 X-38.0047 Y7.3112 
G01 X-38.0664 Y7.5010 
G01 X-38.0976 Y7.6980 
G01 X-38.0976 Y10.0820 
G01 X-38.0664 Y10.2790 
G01 X-38.0047 Y10.4688 
G01 X-37.9141 Y10.6466 
G01 X-37.7969 Y10.8080 
G01 X-37.6558 Y10.9491 
G01 X-37.4944 Y11.0663 
G01 X-37.4118 Y11.1084 
G01 X-37.4118 Y11.3742 
G01 X-37.5876 Y11.4638 
G01 X-37.7716 Y11.5975 
G01 X-37.9325 Y11.7584 
G01 X-38.0662 Y11.9424 
G01 X-38.1695 Y12.1452 
G01 X-38.2398 Y12.3615 
G01 X-38.2754 Y12.5862 
G01 X-38.2754 Y12.8138 
G01 X-38.2398 Y13.0385 
G01 X-38.1695 Y13.2548 
G01 X-38.0662 Y13.4576 
G01 X-37.9325 Y13.6416 
G01 X-37.7716 Y13.8025 
G01 X-37.5876 Y13.9362 
G01 X-37.3848 Y14.0395 
G01 X-37.1685 Y14.1098 
G01 X-36.9438 Y14.1454 
G01 X-36.7162 Y14.1454 
G01 X-36.4915 Y14.1098 
G01 X-36.2752 Y14.0395 
G01 X-36.0724 Y13.9362 
G01 X-35.8884 Y13.8025 
G01 X-35.7275 Y13.6416 
G01 X-35.5938 Y13.4576 
G01 X-35.4905 Y13.2548 
G01 X-35.4202 Y13.0385 
G01 X-35.3846 Y12.8138 
G01 X-35.3846 Y12.5862 
G01 X-35.4202 Y12.3615 
G01 X-35.4905 Y12.1452 
G01 X-35.5938 Y11.9424 
G01 X-35.7275 Y11.7584 
G01 X-35.8884 Y11.5975 
G01 X-36.0724 Y11.4638 
G01 X-36.2482 Y11.3742 
G01 X-36.2482 Y11.1084 
G01 X-36.1656 Y11.0663 
G01 X-36.0042 Y10.9491 
G01 X-35.8631 Y10.8080 
G01 X-35.7459 Y10.6466 
G01 X-35.6553 Y10.4688 
G01 X-35.5936 Y10.2790 
G01 X-35.5624 Y10.0820 
G00 Z2.5400 
G00 X-40.6424 Y10.0820 
G01 Z-0.1778 F254.00 
G01 X-40.6424 Y7.6980 F508.00 
G01 X-40.6736 Y7.5010 
G01 X-40.7353 Y7.3112 
G01 X-40.8259 Y7.1334 
G01 X-40.9431 Y6.9720 
G01 X-41.0842 Y6.8309 
G01 X-41.2456 Y6.7137 
G01 X-41.4234 Y6.6231 
G01 X-41.6132 Y6.5614 
G01 X-41.8102 Y6.5302 
G01 X-42.0098 Y6.5302 
G01 X-42.2068 Y6.5614 
G01 X-42.3966 Y6.6231 
G01 X-42.5744 Y6.7137 
G01 X-42.7358 Y6.8309 
G01 X-42.8769 Y6.9720 
G01 X-42.9941 Y7.1334 
G01 X-43.0847 Y7.3112 
G01 X-43.1464 Y7.5010 
G01 X-43.1776 Y7.6980 
G01 X-43.1776 Y10.0820 
G01 X-43.1464 Y10.2790 
G01 X-43.0847 Y10.4688 
G01 X-42.9941 Y10.6466 
G01 X-42.8769 Y10.8080 
G01 X-42.7358 Y10.9491 
G01 X-42.5744 Y11.0663 
G01 X-42.4918 Y11.1084 
G01 X-42.4918 Y14.9990 
G01 X-43.4210 Y15.9282 
G01 X-53.3973 Y15.9282 
G01 X-53.5097 Y15.9506 
G01 X-53.6156 Y15.9944 
G01 X-53.7109 Y16.0581 
G01 X-55.8800 Y18.2272 
G01 X-56.5682 Y17.5390 
G01 X-56.5682 Y11.3727 
G01 X-56.5906 Y11.2603 
G01 X-56.6344 Y11.1544 
G01 X-56.6981 Y11.0591 
G01 X-56.7791 Y10.9781 
G01 X-57.3971 Y10.3601 
G01 X-57.3630 Y10.2930 
G01 X-57.3075 Y10.1223 
G01 X-57.2794 Y9.9450 
G01 X-57.2794 Y7.8350 
G01 X-57.3075 Y7.6577 
G01 X-57.3630 Y7.4870 
G01 X-57.4445 Y7.3270 
G01 X-57.5500 Y7.1817 
G01 X-57.6769 Y7.0548 
G01 X-57.8222 Y6.9493 
G01 X-57.9822 Y6.8678 
G01 X-58.1529 Y6.8123 
G01 X-58.3302 Y6.7842 
G01 X-58.5098 Y6.7842 
G01 X-58.6871 Y6.8123 
G01 X-58.8578 Y6.8678 
G01 X-59.0178 Y6.9493 
G01 X-59.1631 Y7.0548 
G01 X-59.2900 Y7.1817 
G01 X-59.3955 Y7.3270 
G01 X-59.4770 Y7.4870 
G01 X-59.5325 Y7.6577 
G01 X-59.5606 Y7.8350 
G01 X-59.5606 Y9.9450 
G01 X-59.5325 Y10.1223 
G01 X-59.4770 Y10.2930 
G01 X-59.3955 Y10.4530 
G01 X-59.2900 Y10.5983 
G01 X-59.1631 Y10.7252 
G01 X-59.0178 Y10.8307 
G01 X-58.8578 Y10.9122 
G01 X-58.6871 Y10.9677 
G01 X-58.5098 Y10.9958 
G01 X-58.4070 Y10.9958 
G01 X-57.7318 Y11.6710 
G01 X-57.7318 Y17.8373 
G01 X-57.7094 Y17.9497 
G01 X-57.6656 Y18.0556 
G01 X-57.6019 Y18.1509 
G01 X-56.4618 Y19.2910 
G01 X-56.4618 Y34.2342 
G01 X-56.6376 Y34.3238 
G01 X-56.8216 Y34.4575 
G01 X-56.9825 Y34.6184 
G01 X-57.1162 Y34.8024 
G01 X-57.2195 Y35.0052 
G01 X-57.2898 Y35.2215 
G01 X-57.3254 Y35.4462 
G01 X-57.3254 Y35.6738 
G01 X-57.2898 Y35.8985 
G01 X-57.2195 Y36.1148 
G01 X-57.1162 Y36.3176 
G01 X-56.9825 Y36.5016 
G01 X-56.8216 Y36.6625 
G01 X-56.6376 Y36.7962 
G01 X-56.4618 Y36.8858 
G01 X-56.4618 Y41.9673 
G01 X-56.4394 Y42.0797 
G01 X-56.3956 Y42.1856 
G01 X-56.3319 Y42.2809 
G01 X-56.2509 Y42.3619 
G01 X-55.6240 Y42.9888 
G01 X-56.3602 Y43.7250 
G01 X-56.3602 Y45.1750 
G01 X-55.3350 Y46.2002 
G01 X-55.1918 Y46.2002 
G01 X-55.1918 Y48.3173 
G01 X-55.1694 Y48.4297 
G01 X-55.1256 Y48.5356 
G01 X-55.0619 Y48.6309 
G01 X-54.9809 Y48.7119 
G01 X-53.7919 Y49.9009 
G01 X-53.7109 Y49.9819 
G01 X-53.6156 Y50.0456 
G01 X-53.5097 Y50.0894 
G01 X-53.3973 Y50.1118 
G01 X-35.6158 Y50.1118 
G01 X-35.5262 Y50.2876 
G01 X-35.3925 Y50.4716 
G01 X-35.2316 Y50.6325 
G01 X-35.0476 Y50.7662 
G01 X-34.8448 Y50.8695 
G01 X-34.6285 Y50.9398 
G01 X-34.4038 Y50.9754 
G01 X-34.1762 Y50.9754 
G01 X-33.9515 Y50.9398 
G01 X-33.7352 Y50.8695 
G01 X-33.5324 Y50.7662 
G01 X-33.3484 Y50.6325 
G01 X-33.1875 Y50.4716 
G01 X-33.0538 Y50.2876 
G01 X-32.9642 Y50.1118 
G01 X-24.1858 Y50.1118 
G01 X-24.0962 Y50.2876 
G01 X-23.9625 Y50.4716 
G01 X-23.8016 Y50.6325 
G01 X-23.6176 Y50.7662 
G01 X-23.4148 Y50.8695 
G01 X-23.1985 Y50.9398 
G01 X-22.9738 Y50.9754 
G01 X-22.7462 Y50.9754 
G01 X-22.5215 Y50.9398 
G01 X-22.3052 Y50.8695 
G01 X-22.1024 Y50.7662 
G01 X-21.9184 Y50.6325 
G01 X-21.7575 Y50.4716 
G01 X-21.6238 Y50.2876 
G01 X-21.5342 Y50.1118 
G01 X-14.0258 Y50.1118 
G01 X-13.9362 Y50.2876 
G01 X-13.8025 Y50.4716 
G01 X-13.6416 Y50.6325 
G01 X-13.4576 Y50.7662 
G01 X-13.2548 Y50.8695 
G01 X-13.0385 Y50.9398 
G01 X-12.8138 Y50.9754 
G01 X-12.5862 Y50.9754 
G01 X-12.3615 Y50.9398 
G01 X-12.1452 Y50.8695 
G01 X-11.9424 Y50.7662 
G01 X-11.7584 Y50.6325 
G01 X-11.5975 Y50.4716 
G01 X-11.4638 Y50.2876 
G01 X-11.3605 Y50.0848 
G01 X-11.2902 Y49.8685 
G01 X-11.2546 Y49.6438 
G01 X-11.2546 Y49.4162 
G01 X-11.2902 Y49.1915 
G01 X-11.3605 Y48.9752 
G01 X-11.4638 Y48.7724 
G01 X-11.5975 Y48.5884 
G01 X-11.7584 Y48.4275 
G01 X-11.9424 Y48.2938 
G01 X-12.1452 Y48.1905 
G01 X-12.3615 Y48.1202 
G01 X-12.5862 Y48.0846 
G01 X-12.8138 Y48.0846 
G01 X-13.0385 Y48.1202 
G01 X-13.2548 Y48.1905 
G01 X-13.4576 Y48.2938 
G01 X-13.6416 Y48.4275 
G01 X-13.8025 Y48.5884 
G01 X-13.9362 Y48.7724 
G01 X-14.0258 Y48.9482 
G01 X-21.5342 Y48.9482 
G01 X-21.6238 Y48.7724 
G01 X-21.7575 Y48.5884 
G01 X-21.9184 Y48.4275 
G01 X-22.1024 Y48.2938 
G01 X-22.3052 Y48.1905 
G01 X-22.5215 Y48.1202 
G01 X-22.7462 Y48.0846 
G01 X-22.9738 Y48.0846 
G01 X-23.1985 Y48.1202 
G01 X-23.4148 Y48.1905 
G01 X-23.6176 Y48.2938 
G01 X-23.8016 Y48.4275 
G01 X-23.9625 Y48.5884 
G01 X-24.0962 Y48.7724 
G01 X-24.1858 Y48.9482 
G01 X-32.9642 Y48.9482 
G01 X-33.0538 Y48.7724 
G01 X-33.1875 Y48.5884 
G01 X-33.3484 Y48.4275 
G01 X-33.5324 Y48.2938 
G01 X-33.7352 Y48.1905 
G01 X-33.9515 Y48.1202 
G01 X-34.1762 Y48.0846 
G01 X-34.4038 Y48.0846 
G01 X-34.6285 Y48.1202 
G01 X-34.8448 Y48.1905 
G01 X-35.0476 Y48.2938 
G01 X-35.2316 Y48.4275 
G01 X-35.3925 Y48.5884 
G01 X-35.5262 Y48.7724 
G01 X-35.6158 Y48.9482 
G01 X-53.0990 Y48.9482 
G01 X-54.0282 Y48.0190 
G01 X-54.0282 Y46.2002 
G01 X-53.8850 Y46.2002 
G01 X-52.8598 Y45.1750 
G01 X-52.8598 Y43.7250 
G01 X-53.8850 Y42.6998 
G01 X-54.2674 Y42.6998 
G01 X-55.2982 Y41.6690 
G01 X-55.2982 Y36.8858 
G01 X-55.1224 Y36.7962 
G01 X-54.9384 Y36.6625 
G01 X-54.7775 Y36.5016 
G01 X-54.6438 Y36.3176 
G01 X-54.5405 Y36.1148 
G01 X-54.4702 Y35.8985 
G01 X-54.4346 Y35.6738 
G01 X-54.4346 Y35.4462 
G01 X-54.4702 Y35.2215 
G01 X-54.5405 Y35.0052 
G01 X-54.6438 Y34.8024 
G01 X-54.7775 Y34.6184 
G01 X-54.9384 Y34.4575 
G01 X-55.1224 Y34.3238 
G01 X-55.2982 Y34.2342 
G01 X-55.2982 Y19.2910 
G01 X-53.0990 Y17.0918 
G01 X-43.1227 Y17.0918 
G01 X-43.0103 Y17.0694 
G01 X-42.9044 Y17.0256 
G01 X-42.8091 Y16.9619 
G01 X-42.7281 Y16.8809 
G01 X-41.5391 Y15.6919 
G01 X-41.4581 Y15.6109 
G01 X-41.3944 Y15.5156 
G01 X-41.3506 Y15.4097 
G01 X-41.3282 Y15.2973 
G01 X-41.3282 Y11.1084 
G01 X-41.2456 Y11.0663 
G01 X-41.0842 Y10.9491 
G01 X-40.9431 Y10.8080 
G01 X-40.8259 Y10.6466 
G01 X-40.7353 Y10.4688 
G01 X-40.6736 Y10.2790 
G01 X-40.6424 Y10.0820 
G00 Z2.5400 
G00 X-9.0038 Y39.5454 
G01 Z-0.1778 F254.00 
G01 X-6.2362 Y39.5454 F508.00 
G01 X-6.0115 Y39.5098 
G01 X-5.7952 Y39.4395 
G01 X-5.5924 Y39.3362 
G01 X-5.4084 Y39.2025 
G01 X-5.2475 Y39.0416 
G01 X-5.1138 Y38.8576 
G01 X-5.0105 Y38.6548 
G01 X-4.9402 Y38.4385 
G01 X-4.9046 Y38.2138 
G01 X-4.9046 Y37.9862 
G01 X-4.9402 Y37.7615 
G01 X-5.0105 Y37.5452 
G01 X-5.1138 Y37.3424 
G01 X-5.2475 Y37.1584 
G01 X-5.4084 Y36.9975 
G01 X-5.5924 Y36.8638 
G01 X-5.7952 Y36.7605 
G01 X-6.0115 Y36.6902 
G01 X-6.2362 Y36.6546 
G01 X-9.0038 Y36.6546 
G01 X-9.2285 Y36.6902 
G01 X-9.4448 Y36.7605 
G01 X-9.6476 Y36.8638 
G01 X-9.8316 Y36.9975 
G01 X-9.9925 Y37.1584 
G01 X-10.1262 Y37.3424 
G01 X-10.2295 Y37.5452 
G01 X-10.2998 Y37.7615 
G01 X-10.3354 Y37.9862 
G01 X-10.3354 Y38.2138 
G01 X-10.2998 Y38.4385 
G01 X-10.2295 Y38.6548 
G01 X-10.1262 Y38.8576 
G01 X-9.9925 Y39.0416 
G01 X-9.8316 Y39.2025 
G01 X-9.6476 Y39.3362 
G01 X-9.4448 Y39.4395 
G01 X-9.2285 Y39.5098 
G01 X-9.0038 Y39.5454 
G00 Z2.5400 
G00 X-19.1638 Y39.5454 
G01 Z-0.1778 F254.00 
G01 X-16.3962 Y39.5454 F508.00 
G01 X-16.1715 Y39.5098 
G01 X-15.9552 Y39.4395 
G01 X-15.7524 Y39.3362 
G01 X-15.5684 Y39.2025 
G01 X-15.4075 Y39.0416 
G01 X-15.2738 Y38.8576 
G01 X-15.1705 Y38.6548 
G01 X-15.1002 Y38.4385 
G01 X-15.0646 Y38.2138 
G01 X-15.0646 Y37.9862 
G01 X-15.1002 Y37.7615 
G01 X-15.1705 Y37.5452 
G01 X-15.2738 Y37.3424 
G01 X-15.4075 Y37.1584 
G01 X-15.5684 Y36.9975 
G01 X-15.7524 Y36.8638 
G01 X-15.9552 Y36.7605 
G01 X-16.1715 Y36.6902 
G01 X-16.3962 Y36.6546 
G01 X-19.1638 Y36.6546 
G01 X-19.3885 Y36.6902 
G01 X-19.6048 Y36.7605 
G01 X-19.8076 Y36.8638 
G01 X-19.9916 Y36.9975 
G01 X-20.1525 Y37.1584 
G01 X-20.2862 Y37.3424 
G01 X-20.3895 Y37.5452 
G01 X-20.4598 Y37.7615 
G01 X-20.4954 Y37.9862 
G01 X-20.4954 Y38.2138 
G01 X-20.4598 Y38.4385 
G01 X-20.3895 Y38.6548 
G01 X-20.2862 Y38.8576 
G01 X-20.1525 Y39.0416 
G01 X-19.9916 Y39.2025 
G01 X-19.8076 Y39.3362 
G01 X-19.6048 Y39.4395 
G01 X-19.3885 Y39.5098 
G01 X-19.1638 Y39.5454 
G00 Z2.5400 
G00 X-30.5938 Y47.1654 
G01 Z-0.1778 F254.00 
G01 X-27.8678 Y47.1654 F508.00 
G01 X-27.7725 Y47.2966 
G01 X-27.6116 Y47.4575 
G01 X-27.4276 Y47.5912 
G01 X-27.2248 Y47.6945 
G01 X-27.0085 Y47.7648 
G01 X-26.7838 Y47.8004 
G01 X-26.5562 Y47.8004 
G01 X-26.3315 Y47.7648 
G01 X-26.1152 Y47.6945 
G01 X-25.9124 Y47.5912 
G01 X-25.7284 Y47.4575 
G01 X-25.5675 Y47.2966 
G01 X-25.4338 Y47.1126 
G01 X-25.3305 Y46.9098 
G01 X-25.2602 Y46.6935 
G01 X-25.2246 Y46.4688 
G01 X-25.2246 Y46.3018 
G01 X-20.3758 Y46.3018 
G01 X-20.2862 Y46.4776 
G01 X-20.1525 Y46.6616 
G01 X-19.9916 Y46.8225 
G01 X-19.8076 Y46.9562 
G01 X-19.6048 Y47.0595 
G01 X-19.3885 Y47.1298 
G01 X-19.1638 Y47.1654 
G01 X-16.3962 Y47.1654 
G01 X-16.1715 Y47.1298 
G01 X-15.9552 Y47.0595 
G01 X-15.7524 Y46.9562 
G01 X-15.5684 Y46.8225 
G01 X-15.4075 Y46.6616 
G01 X-15.2738 Y46.4776 
G01 X-15.1842 Y46.3018 
G01 X-10.2158 Y46.3018 
G01 X-10.1262 Y46.4776 
G01 X-9.9925 Y46.6616 
G01 X-9.8316 Y46.8225 
G01 X-9.6476 Y46.9562 
G01 X-9.4448 Y47.0595 
G01 X-9.2285 Y47.1298 
G01 X-9.0038 Y47.1654 
G01 X-6.2362 Y47.1654 
G01 X-6.0115 Y47.1298 
G01 X-5.7952 Y47.0595 
G01 X-5.5924 Y46.9562 
G01 X-5.4084 Y46.8225 
G01 X-5.2475 Y46.6616 
G01 X-5.1138 Y46.4776 
G01 X-5.0105 Y46.2748 
G01 X-4.9402 Y46.0585 
G01 X-4.9046 Y45.8338 
G01 X-4.9046 Y45.6062 
G01 X-4.9402 Y45.3815 
G01 X-5.0105 Y45.1652 
G01 X-5.1138 Y44.9624 
G01 X-5.2475 Y44.7784 
G01 X-5.4084 Y44.6175 
G01 X-5.5924 Y44.4838 
G01 X-5.7952 Y44.3805 
G01 X-6.0115 Y44.3102 
G01 X-6.2362 Y44.2746 
G01 X-9.0038 Y44.2746 
G01 X-9.2285 Y44.3102 
G01 X-9.4448 Y44.3805 
G01 X-9.6476 Y44.4838 
G01 X-9.8316 Y44.6175 
G01 X-9.9925 Y44.7784 
G01 X-10.1262 Y44.9624 
G01 X-10.2158 Y45.1382 
G01 X-15.1842 Y45.1382 
G01 X-15.2738 Y44.9624 
G01 X-15.4075 Y44.7784 
G01 X-15.5684 Y44.6175 
G01 X-15.7524 Y44.4838 
G01 X-15.9552 Y44.3805 
G01 X-16.1715 Y44.3102 
G01 X-16.3962 Y44.2746 
G01 X-19.1638 Y44.2746 
G01 X-19.3885 Y44.3102 
G01 X-19.6048 Y44.3805 
G01 X-19.8076 Y44.4838 
G01 X-19.9916 Y44.6175 
G01 X-20.1525 Y44.7784 
G01 X-20.2862 Y44.9624 
G01 X-20.3758 Y45.1382 
G01 X-25.8857 Y45.1382 
G01 X-25.9124 Y45.1188 
G01 X-26.1152 Y45.0155 
G01 X-26.3315 Y44.9452 
G01 X-26.5562 Y44.9096 
G01 X-26.7422 Y44.9096 
G01 X-26.8375 Y44.7784 
G01 X-26.9984 Y44.6175 
G01 X-27.1824 Y44.4838 
G01 X-27.3852 Y44.3805 
G01 X-27.6015 Y44.3102 
G01 X-27.8262 Y44.2746 
G01 X-30.5938 Y44.2746 
G01 X-30.8185 Y44.3102 
G01 X-31.0348 Y44.3805 
G01 X-31.2376 Y44.4838 
G01 X-31.4216 Y44.6175 
G01 X-31.5825 Y44.7784 
G01 X-31.7162 Y44.9624 
G01 X-31.8195 Y45.1652 
G01 X-31.8898 Y45.3815 
G01 X-31.9254 Y45.6062 
G01 X-31.9254 Y45.8338 
G01 X-31.8898 Y46.0585 
G01 X-31.8195 Y46.2748 
G01 X-31.7162 Y46.4776 
G01 X-31.5825 Y46.6616 
G01 X-31.4216 Y46.8225 
G01 X-31.2376 Y46.9562 
G01 X-31.0348 Y47.0595 
G01 X-30.8185 Y47.1298 
G01 X-30.5938 Y47.1654 
G00 Z2.5400 
G00 X-30.5938 Y39.5454 
G01 Z-0.1778 F254.00 
G01 X-27.8262 Y39.5454 F508.00 
G01 X-27.6015 Y39.5098 
G01 X-27.3852 Y39.4395 
G01 X-27.1824 Y39.3362 
G01 X-26.9984 Y39.2025 
G01 X-26.8375 Y39.0416 
G01 X-26.7038 Y38.8576 
G01 X-26.6005 Y38.6548 
G01 X-26.5302 Y38.4385 
G01 X-26.4946 Y38.2138 
G01 X-26.4946 Y37.9862 
G01 X-26.5302 Y37.7615 
G01 X-26.6005 Y37.5452 
G01 X-26.7038 Y37.3424 
G01 X-26.8375 Y37.1584 
G01 X-26.9984 Y36.9975 
G01 X-27.1824 Y36.8638 
G01 X-27.3852 Y36.7605 
G01 X-27.6015 Y36.6902 
G01 X-27.8262 Y36.6546 
G01 X-30.5938 Y36.6546 
G01 X-30.8185 Y36.6902 
G01 X-31.0348 Y36.7605 
G01 X-31.2376 Y36.8638 
G01 X-31.4216 Y36.9975 
G01 X-31.5825 Y37.1584 
G01 X-31.7162 Y37.3424 
G01 X-31.8195 Y37.5452 
G01 X-31.8898 Y37.7615 
G01 X-31.9254 Y37.9862 
G01 X-31.9254 Y38.2138 
G01 X-31.8898 Y38.4385 
G01 X-31.8195 Y38.6548 
G01 X-31.7162 Y38.8576 
G01 X-31.5825 Y39.0416 
G01 X-31.4216 Y39.2025 
G01 X-31.2376 Y39.3362 
G01 X-31.0348 Y39.4395 
G01 X-30.8185 Y39.5098 
G01 X-30.5938 Y39.5454 
G00 Z2.5400 
G00 X-52.1994 Y9.9450 
G01 Z-0.1778 F254.00 
G01 X-52.1994 Y9.4718 F508.00 
G01 X-50.8558 Y9.4718 
G01 X-50.7662 Y9.6476 
G01 X-50.6325 Y9.8316 
G01 X-50.4716 Y9.9925 
G01 X-50.2876 Y10.1262 
G01 X-50.0848 Y10.2295 
G01 X-49.8685 Y10.2998 
G01 X-49.6438 Y10.3354 
G01 X-49.4162 Y10.3354 
G01 X-49.1915 Y10.2998 
G01 X-48.9752 Y10.2295 
G01 X-48.7724 Y10.1262 
G01 X-48.5884 Y9.9925 
G01 X-48.4275 Y9.8316 
G01 X-48.2938 Y9.6476 
G01 X-48.1905 Y9.4448 
G01 X-48.1202 Y9.2285 
G01 X-48.0846 Y9.0038 
G01 X-48.0846 Y8.7762 
G01 X-48.1202 Y8.5515 
G01 X-48.1905 Y8.3352 
G01 X-48.2938 Y8.1324 
G01 X-48.4275 Y7.9484 
G01 X-48.5884 Y7.7875 
G01 X-48.7724 Y7.6538 
G01 X-48.9752 Y7.5505 
G01 X-49.1915 Y7.4802 
G01 X-49.4162 Y7.4446 
G01 X-49.6438 Y7.4446 
G01 X-49.8685 Y7.4802 
G01 X-50.0848 Y7.5505 
G01 X-50.2876 Y7.6538 
G01 X-50.4716 Y7.7875 
G01 X-50.6325 Y7.9484 
G01 X-50.7662 Y8.1324 
G01 X-50.8558 Y8.3082 
G01 X-52.1994 Y8.3082 
G01 X-52.1994 Y7.8350 
G01 X-52.2275 Y7.6577 
G01 X-52.2830 Y7.4870 
G01 X-52.3645 Y7.3270 
G01 X-52.4700 Y7.1817 
G01 X-52.5969 Y7.0548 
G01 X-52.7422 Y6.9493 
G01 X-52.9022 Y6.8678 
G01 X-53.0729 Y6.8123 
G01 X-53.2502 Y6.7842 
G01 X-53.4298 Y6.7842 
G01 X-53.6071 Y6.8123 
G01 X-53.7778 Y6.8678 
G01 X-53.9378 Y6.9493 
G01 X-54.0831 Y7.0548 
G01 X-54.2100 Y7.1817 
G01 X-54.3155 Y7.3270 
G01 X-54.3970 Y7.4870 
G01 X-54.4525 Y7.6577 
G01 X-54.4806 Y7.8350 
G01 X-54.4806 Y9.9450 
G01 X-54.4525 Y10.1223 
G01 X-54.3970 Y10.2930 
G01 X-54.3155 Y10.4530 
G01 X-54.2100 Y10.5983 
G01 X-54.0831 Y10.7252 
G01 X-53.9378 Y10.8307 
G01 X-53.7778 Y10.9122 
G01 X-53.6071 Y10.9677 
G01 X-53.4298 Y10.9958 
G01 X-53.2502 Y10.9958 
G01 X-53.0729 Y10.9677 
G01 X-52.9022 Y10.9122 
G01 X-52.7422 Y10.8307 
G01 X-52.5969 Y10.7252 
G01 X-52.4700 Y10.5983 
G01 X-52.3645 Y10.4530 
G01 X-52.2830 Y10.2930 
G01 X-52.2275 Y10.1223 
G01 X-52.1994 Y9.9450 
G00 Z2.5400 
G00 X-65.3518 Y54.5527 
G01 Z-0.1778 F254.00 
G01 X-65.3518 Y54.6673 F508.00 
G01 X-65.3294 Y54.7797 
G01 X-65.2856 Y54.8856 
G01 X-65.2219 Y54.9809 
G01 X-62.6819 Y57.5209 
G01 X-62.6009 Y57.6019 
G01 X-62.5056 Y57.6656 
G01 X-62.3997 Y57.7094 
G01 X-62.2873 Y57.7318 
G01 X-27.9958 Y57.7318 
G01 X-27.9062 Y57.9076 
G01 X-27.7725 Y58.0916 
G01 X-27.6116 Y58.2525 
G01 X-27.4276 Y58.3862 
G01 X-27.2248 Y58.4895 
G01 X-27.0085 Y58.5598 
G01 X-26.7838 Y58.5954 
G01 X-26.5562 Y58.5954 
G01 X-26.3315 Y58.5598 
G01 X-26.1152 Y58.4895 
G01 X-25.9124 Y58.3862 
G01 X-25.7284 Y58.2525 
G01 X-25.5675 Y58.0916 
G01 X-25.4338 Y57.9076 
G01 X-25.3305 Y57.7048 
G01 X-25.2602 Y57.4885 
G01 X-25.2246 Y57.2638 
G01 X-25.2246 Y57.0362 
G01 X-25.2602 Y56.8115 
G01 X-25.3305 Y56.5952 
G01 X-25.4338 Y56.3924 
G01 X-25.5675 Y56.2084 
G01 X-25.7284 Y56.0475 
G01 X-25.9124 Y55.9138 
G01 X-26.1152 Y55.8105 
G01 X-26.3315 Y55.7402 
G01 X-26.5562 Y55.7046 
G01 X-26.7838 Y55.7046 
G01 X-27.0085 Y55.7402 
G01 X-27.2248 Y55.8105 
G01 X-27.4276 Y55.9138 
G01 X-27.6116 Y56.0475 
G01 X-27.7725 Y56.2084 
G01 X-27.9062 Y56.3924 
G01 X-27.9958 Y56.5682 
G01 X-61.9890 Y56.5682 
G01 X-64.1882 Y54.3690 
G01 X-64.1882 Y18.0210 
G01 X-60.2161 Y14.0489 
G01 X-60.0285 Y14.1098 
G01 X-59.8038 Y14.1454 
G01 X-59.5762 Y14.1454 
G01 X-59.3515 Y14.1098 
G01 X-59.1352 Y14.0395 
G01 X-58.9324 Y13.9362 
G01 X-58.7484 Y13.8025 
G01 X-58.5875 Y13.6416 
G01 X-58.4538 Y13.4576 
G01 X-58.3505 Y13.2548 
G01 X-58.2802 Y13.0385 
G01 X-58.2446 Y12.8138 
G01 X-58.2446 Y12.5862 
G01 X-58.2802 Y12.3615 
G01 X-58.3505 Y12.1452 
G01 X-58.4538 Y11.9424 
G01 X-58.5875 Y11.7584 
G01 X-58.7484 Y11.5975 
G01 X-58.9324 Y11.4638 
G01 X-59.1352 Y11.3605 
G01 X-59.3515 Y11.2902 
G01 X-59.5762 Y11.2546 
G01 X-59.8038 Y11.2546 
G01 X-60.0285 Y11.2902 
G01 X-60.2161 Y11.3511 
G01 X-60.3782 Y11.1890 
G01 X-60.3782 Y10.8389 
G01 X-60.3622 Y10.8307 
G01 X-60.2169 Y10.7252 
G01 X-60.0900 Y10.5983 
G01 X-59.9845 Y10.4530 
G01 X-59.9030 Y10.2930 
G01 X-59.8475 Y10.1223 
G01 X-59.8194 Y9.9450 
G01 X-59.8194 Y7.8350 
G01 X-59.8475 Y7.6577 
G01 X-59.9030 Y7.4870 
G01 X-59.9845 Y7.3270 
G01 X-60.0900 Y7.1817 
G01 X-60.2169 Y7.0548 
G01 X-60.3622 Y6.9493 
G01 X-60.5222 Y6.8678 
G01 X-60.6929 Y6.8123 
G01 X-60.8702 Y6.7842 
G01 X-61.0498 Y6.7842 
G01 X-61.2271 Y6.8123 
G01 X-61.3978 Y6.8678 
G01 X-61.5578 Y6.9493 
G01 X-61.7031 Y7.0548 
G01 X-61.8300 Y7.1817 
G01 X-61.9355 Y7.3270 
G01 X-62.0170 Y7.4870 
G01 X-62.0725 Y7.6577 
G01 X-62.1006 Y7.8350 
G01 X-62.1006 Y9.9450 
G01 X-62.0725 Y10.1223 
G01 X-62.0170 Y10.2930 
G01 X-61.9355 Y10.4530 
G01 X-61.8300 Y10.5983 
G01 X-61.7031 Y10.7252 
G01 X-61.5578 Y10.8307 
G01 X-61.5418 Y10.8389 
G01 X-61.5418 Y11.4873 
G01 X-61.5194 Y11.5997 
G01 X-61.4756 Y11.7056 
G01 X-61.4119 Y11.8009 
G01 X-61.0389 Y12.1739 
G01 X-61.0998 Y12.3615 
G01 X-61.1354 Y12.5862 
G01 X-61.1354 Y12.8138 
G01 X-61.0998 Y13.0385 
G01 X-61.0389 Y13.2261 
G01 X-65.2219 Y17.4091 
G01 X-65.2856 Y17.5044 
G01 X-65.3294 Y17.6103 
G01 X-65.3518 Y17.7227 
G01 X-65.3518 Y17.8373 
G01 X-65.3518 Y54.5527 
G00 Z2.5400 
G00 Z12.7000 
M05
M02
